!!!!SEGMENT: s-uu--vok-mus-i-hs-22-12_forster-kaspar--o-quam-dulcis.krn
!!!cenid: 16xx:1701
!!!COM: Förster, Kaspar
!!!COM-rismID: pe30006147
!!!CDT: ~1616-1673/02/02
!!!CNT: German
!!!OTL: O quam dulcis
!!!PDT: 1690
!!!AGN:
!!!SMS-siglum: S-Uu
!!!SMS-shelfmark: Vok. mus. i hs. 22:12
!!!SMS-shelfwork: W
!!!SMS-variant:
!!!SMS-altvar:
!!!NIFC-rismSourceID: 190008731
!!!NIFC-rismChildID: 190008731
!!!NIFC-islandoraID: none
!!!URL-pdf-islandora:
!!!URL-scan: https://www2.musik.uu.se/duben/presentationSource1.php?Select_Dnr=847 @EN{Scan on Academica} @PL{Skany w zewnętrznej bibliotece cyfrowej}
!!!ONB-nifc: UWAGA: poszczególne partie dostępne po kliknięciu w „browse part”. Informacje nt stron tytułowych w opisie na stronie lub na RISM.
!!!OMD:
!!!AIN: 1 alto 1 organ 1 soprn 1 tenor 1 viola 2 violn
!!!key: C
**kern	**fba	**dynam	**kern	**kern	**dynam	**kern	**dynam	**kern	**text	**dynam	**kern	**text	**dynam	**kern	**text	**dynam
*part7	*part7	*part7	*part6	*part5	*part5	*part4	*part4	*part3	*part3	*part3	*part2	*part2	*part2	*part1	*part1	*part1
*staff7	*staff7	*	*staff6	*staff5	*	*staff4	*	*staff3	*staff3	*	*staff2	*staff2	*	*staff1	*staff1	*
*I"bc	*	*	*I"Violonne	*I"Violin Secondo	*	*I"Violino Primo	*	*I"Tenore	*	*	*I"Alto	*	*	*I"Canto	*	*
*I'bc	*	*	*I'vlne	*I'vl 2	*	*I'vl 1	*	*I'T	*	*	*I'A	*	*	*I'S	*	*
*Iorgan	*	*	*Iviola	*Ivioln	*	*Ivioln	*	*Itenor	*	*	*Ialto	*	*	*Isoprn	*	*
*ICklav	*	*	*ICstr	*ICstr	*	*ICstr	*	*ICvox	*	*	*ICvox	*	*	*ICbox	*	*
*clefF4	*	*	*clefF4	*clefG2	*	*clefG2	*	*clefC4	*	*	*clefC3	*	*	*clefC1	*	*
*k[]	*	*	*k[]	*k[]	*	*k[]	*	*k[]	*	*	*k[]	*	*	*k[]	*	*
*C:	*	*	*C:	*C:	*	*C:	*	*C:	*	*	*C:	*	*	*C:	*	*
*M2/1	*	*	*M2/1	*M2/1	*	*M2/1	*	*M2/1	*	*	*M2/1	*	*	*M2/1	*	*
*met(C|)	*	*	*met(C|)	*met(C|)	*	*met(C|)	*	*met(C|)	*	*	*met(C|)	*	*	*met(C|)	*	*
=1-	=1-	=1-	=1-	=1-	=1-	=1-	=1-	=1-	=1-	=1-	=1-	=1-	=1-	=1-	=1-	=1-
!	!	!	!	!	!	!	!	!LO:TX:t=P:problem:52 pauzy 00r trwają tyle ile 52 pazuy 0r	!	!	!LO:TX:t=P:problem:52 pauzy 00r trwają tyle ile 52 pazuy 0r	!	!	!LO:TX:t=P:problem:52 pauzy 00r trwają tyle ile 52 pazuy 0r	!	!
!	!	!	!LO:TX:b:t=Sinfonia	!LO:TX:b:t=Sinfonia	!	!	!	!LO:TX:b:t=Sinfonia	!	!	!LO:TX:b:t=Sinfonia	!	!	!LO:TX:b:t=Sinfonia	!	!
!LO:TX:b:t=Sinfonia á 3	!	!	!LO:TX:a:t=5	!	!	!LO:TX:b:t=Sinfonia	!	!LO:TX:a:t=52	!	!	!LO:TX:a:t=52	!	!	!LO:TX:a:t=52	!	!
1GG	.	.	00r	8r	.	0r	.	00r	.	.	00r	.	.	00r	.	.
.	.	.	.	8dd\L	.	.	.	.	.	.	.	.	.	.	.	.
.	.	.	.	8dd\	.	.	.	.	.	.	.	.	.	.	.	.
.	.	.	.	8dd\J	.	.	.	.	.	.	.	.	.	.	.	.
.	.	.	.	8b\L	.	.	.	.	.	.	.	.	.	.	.	.
.	.	.	.	8dd\	.	.	.	.	.	.	.	.	.	.	.	.
.	.	.	.	8b\	.	.	.	.	.	.	.	.	.	.	.	.
!	!	!	!	!LO:TX:t=P:problem:kreska pseudotaktowa	!	!	!	!	!	!	!	!	!	!	!	!
.	.	.	.	8dd\J	.	.	.	.	.	.	.	.	.	.	.	.
!LO:TX:t=P:problem:kreska pseudotaktowa	!	!	!	!LO:TX:a:t=P:problem:mixedbeam	!	!	!	!	!	!	!	!	!	!	!	!
1GG	.	.	.	8g/L	.	.	.	.	.	.	.	.	.	.	.	.
.	.	.	.	8gg\J	.	.	.	.	.	.	.	.	.	.	.	.
.	.	.	.	8gg\L	.	.	.	.	.	.	.	.	.	.	.	.
.	.	.	.	16ff\L	.	.	.	.	.	.	.	.	.	.	.	.
.	.	.	.	16ee\JJ	.	.	.	.	.	.	.	.	.	.	.	.
.	.	.	.	16dd\LL	.	.	.	.	.	.	.	.	.	.	.	.
.	.	.	.	16gg\	.	.	.	.	.	.	.	.	.	.	.	.
.	.	.	.	16ff\	.	.	.	.	.	.	.	.	.	.	.	.
.	.	.	.	16ee\JJ	.	.	.	.	.	.	.	.	.	.	.	.
.	.	.	.	16dd\LL	.	.	.	.	.	.	.	.	.	.	.	.
.	.	.	.	16cc\	.	.	.	.	.	.	.	.	.	.	.	.
.	.	.	.	16b\	.	.	.	.	.	.	.	.	.	.	.	.
!	!	!	!	!LO:TX:t=P:problem:kreska pseudotaktowa	!	!	!	!	!	!	!	!	!	!	!	!
.	.	.	.	16a\JJ	.	.	.	.	.	.	.	.	.	.	.	.
=2-	=2-	=2-	=2-	=2-	=2-	=2-	=2-	=2-	=2-	=2-	=2-	=2-	=2-	=2-	=2-	=2-
2G\	.	.	.	8g/L	.	8r	.	.	.	.	.	.	.	.	.	.
.	.	.	.	16b/L	.	8gg\L	.	.	.	.	.	.	.	.	.	.
.	.	.	.	16a/JJ	.	.	.	.	.	.	.	.	.	.	.	.
.	.	.	.	16b/LL	.	8gg\	.	.	.	.	.	.	.	.	.	.
.	.	.	.	16g/	.	.	.	.	.	.	.	.	.	.	.	.
.	.	.	.	16a/	.	8gg\J	.	.	.	.	.	.	.	.	.	.
.	.	.	.	16b/JJ	.	.	.	.	.	.	.	.	.	.	.	.
2.C/	.	.	.	16cc\LL	.	8ee\L	.	.	.	.	.	.	.	.	.	.
.	.	.	.	16dd\	.	.	.	.	.	.	.	.	.	.	.	.
.	.	.	.	16ee\	.	8gg\	.	.	.	.	.	.	.	.	.	.
.	.	.	.	16ff\JJ	.	.	.	.	.	.	.	.	.	.	.	.
!	!	!	!	!LO:TX:t=P:problem:kreska pseudotaktowa	!	!	!	!	!	!	!	!	!	!	!	!
.	.	.	.	4gg\	.	8ee\	.	.	.	.	.	.	.	.	.	.
!	!	!	!	!	!	!LO:TX:t=P:problem:kreska pseudotaktowa	!	!	!	!	!	!	!	!	!	!
.	.	.	.	.	.	8gg\J	.	.	.	.	.	.	.	.	.	.
.	.	.	.	8ee\L	.	8cc\L	.	.	.	.	.	.	.	.	.	.
.	.	.	.	8aa\J	.	8ccc\J	.	.	.	.	.	.	.	.	.	.
4AA/	.	.	.	8aa\L	.	8ccc\L	.	.	.	.	.	.	.	.	.	.
.	.	.	.	16gg\L	.	16bb\L	.	.	.	.	.	.	.	.	.	.
.	.	.	.	16ff\JJ	.	16aa\JJ	.	.	.	.	.	.	.	.	.	.
!LO:TX:t=P:problem:kreska pseudotaktowa	!	!	!	!	!	!	!	!	!	!	!	!	!	!	!	!
2C/	.	.	.	16ee\LL	.	16gg\LL	.	.	.	.	.	.	.	.	.	.
.	.	.	.	16aa\	.	16ccc\	.	.	.	.	.	.	.	.	.	.
.	.	.	.	16gg\	.	16bb\	.	.	.	.	.	.	.	.	.	.
.	.	.	.	16ff\JJ	.	16aa\JJ	.	.	.	.	.	.	.	.	.	.
.	.	.	.	16ee\LL	.	16gg\LL	.	.	.	.	.	.	.	.	.	.
.	.	.	.	16dd\	.	16ff\	.	.	.	.	.	.	.	.	.	.
.	.	.	.	16cc\	.	16ee\	.	.	.	.	.	.	.	.	.	.
!	!	!	!	!LO:SIC:v:t=custos cc	!	!LO:TX:t=P:problem:kreska pseudotaktowa	!	!	!	!	!	!	!	!	!	!
!	!	!	!	!LO:TX:t=P:problem:kreska pseudotaktowa	!	!	!	!	!	!	!	!	!	!	!	!
.	.	.	.	16b\JJ	.	16dd\JJ	.	.	.	.	.	.	.	.	.	.
=3-	=3-	=3-	=3-	=3-	=3-	=3-	=3-	=3-	=3-	=3-	=3-	=3-	=3-	=3-	=3-	=3-
!	!	!	!	!LO:LB:g=original	!	!	!	!	!	!	!	!	!	!	!	!
4C/	.	.	1r	8cc\L	.	8ee\L	.	00r	.	.	00r	.	.	00r	.	.
.	.	.	.	8gg\	.	8ee\	.	.	.	.	.	.	.	.	.	.
4F\	65	.	.	8ff\	.	8dd\	.	.	.	.	.	.	.	.	.	.
.	.	.	.	8ee\J	.	8cc\J	.	.	.	.	.	.	.	.	.	.
4G\	.	.	.	4dd\	.	8b/L	.	.	.	.	.	.	.	.	.	.
.	.	.	.	.	.	8g/J	.	.	.	.	.	.	.	.	.	.
!	!	!	!	!LO:TX:t=P:problem:kreska pseudotaktowa	!	!	!	!	!	!	!	!	!	!	!	!
4C/	.	.	.	4ee\	.	2cc\	.	.	.	.	.	.	.	.	.	.
2G\	43	.	8r	2dd\	.	.	.	.	.	.	.	.	.	.	.	.
.	.	.	8G\L	.	.	.	.	.	.	.	.	.	.	.	.	.
.	.	.	8G\	.	.	4b/	.	.	.	.	.	.	.	.	.	.
.	.	.	8G\J	.	.	.	.	.	.	.	.	.	.	.	.	.
!LO:TX:t=P:problem:kreska pseudotaktowa	!	!	!	!	!	!	!	!	!	!	!	!	!	!	!	!
2C/	.	.	8E\L	8ee\L	.	2cc\	.	.	.	.	.	.	.	.	.	.
.	.	.	8G\	8gg\	.	.	.	.	.	.	.	.	.	.	.	.
.	.	.	8E\	8gg\	.	.	.	.	.	.	.	.	.	.	.	.
!	!	!	!LO:TX:t=P:problem:kreska pseudotaktowa	!LO:TX:t=P:problem:kreska pseudotaktowa	!	!	!	!	!	!	!	!	!	!	!	!
.	.	.	8G\J	8gg\J	.	.	.	.	.	.	.	.	.	.	.	.
=4-	=4-	=4-	=4-	=4-	=4-	=4-	=4-	=4-	=4-	=4-	=4-	=4-	=4-	=4-	=4-	=4-
!	!	!	!LO:TX:a:t=P:problem:mixedbeam	!	!	!	!	!	!	!	!	!	!	!	!	!
!	!	!	!	!	!	!LO:TX:t=P:problem:kreska pseudotaktowa	!	!	!	!	!	!	!	!	!	!
2C/	.	.	8C/L	8ee\L	.	1r	.	.	.	.	.	.	.	.	.	.
.	.	.	8c\J	8gg\J	.	.	.	.	.	.	.	.	.	.	.	.
.	.	.	8c\L	8ee\L	.	.	.	.	.	.	.	.	.	.	.	.
.	.	.	16B\L	16dd\L	.	.	.	.	.	.	.	.	.	.	.	.
.	.	.	16A\JJ	16cc\JJ	.	.	.	.	.	.	.	.	.	.	.	.
2G\	.	.	16G\LL	16b\LL	.	.	.	.	.	.	.	.	.	.	.	.
.	.	.	16c\	16ee\	.	.	.	.	.	.	.	.	.	.	.	.
.	.	.	16B\	16dd\	.	.	.	.	.	.	.	.	.	.	.	.
.	.	.	16A\JJ	16cc\JJ	.	.	.	.	.	.	.	.	.	.	.	.
.	.	.	16G\LL	16b/LL	.	.	.	.	.	.	.	.	.	.	.	.
.	.	.	16F\	16a/	.	.	.	.	.	.	.	.	.	.	.	.
.	.	.	16E\	16g/	.	.	.	.	.	.	.	.	.	.	.	.
!	!	!	!LO:TX:t=P:problem:kreska pseudotaktowa	!LO:TX:t=P:problem:kreska pseudotaktowa	!	!	!	!	!	!	!	!	!	!	!	!
.	.	.	16D\JJ	16f/JJ	.	.	.	.	.	.	.	.	.	.	.	.
!	!	!	!	!LO:TX:a:t=P:problem:mixedbeam	!	!	!	!	!	!	!	!	!	!	!	!
4C/	.	.	8C/L	8e/L	.	8r	.	.	.	.	.	.	.	.	.	.
.	.	.	16E/L	8ee\J	.	8gg\L	.	.	.	.	.	.	.	.	.	.
.	.	.	16D/JJ	.	.	.	.	.	.	.	.	.	.	.	.	.
4E\	6	.	16E/LL	4cc\	.	8gg\	.	.	.	.	.	.	.	.	.	.
.	.	.	16C/	.	.	.	.	.	.	.	.	.	.	.	.	.
.	.	.	16D/	.	.	8gg\J	.	.	.	.	.	.	.	.	.	.
.	.	.	16E/JJ	.	.	.	.	.	.	.	.	.	.	.	.	.
4F\	.	.	16F\LL	8r	.	4aa\	.	.	.	.	.	.	.	.	.	.
.	.	.	16G\	.	.	.	.	.	.	.	.	.	.	.	.	.
.	.	.	16F\	8a/L	.	.	.	.	.	.	.	.	.	.	.	.
.	.	.	16E\JJ	.	.	.	.	.	.	.	.	.	.	.	.	.
!LO:TX:t=P:problem:kreska pseudotaktowa	!	!	!	!	!	!LO:TX:t=P:problem:kreska pseudotaktowa	!	!	!	!	!	!	!	!	!	!
4D/	.	.	16D/LL	8a/	.	4r	.	.	.	.	.	.	.	.	.	.
.	.	.	16C/	.	.	.	.	.	.	.	.	.	.	.	.	.
!	!	!	!	!LO:TX:t=P:problem:kreska pseudotaktowa	!	!	!	!	!	!	!	!	!	!	!	!
.	.	.	16BB/	8a/J	.	.	.	.	.	.	.	.	.	.	.	.
!	!	!	!LO:TX:t=P:problem:kreska pseudotaktowa	!	!	!	!	!	!	!	!	!	!	!	!	!
.	.	.	16AA/JJ	.	.	.	.	.	.	.	.	.	.	.	.	.
=5-	=5-	=5-	=5-	=5-	=5-	=5-	=5-	=5-	=5-	=5-	=5-	=5-	=5-	=5-	=5-	=5-
!	!	!	!LO:TX:a:t=P:problem:mixedbeam	!	!	!	!	!	!	!	!	!	!	!	!	!
2GG/	.	.	8GG/L	8b/L	.	8r	.	00r	.	.	00r	.	.	00r	.	.
.	.	.	16G\L	16b/L	.	8dd\L	.	.	.	.	.	.	.	.	.	.
.	.	.	16A\JJ	16cc/JJ	.	.	.	.	.	.	.	.	.	.	.	.
.	.	.	16G\LL	16b/LL	.	8dd\	.	.	.	.	.	.	.	.	.	.
.	.	.	16F\	16a/	.	.	.	.	.	.	.	.	.	.	.	.
.	.	.	16E\	16g/	.	8dd\J	.	.	.	.	.	.	.	.	.	.
.	.	.	16D\JJ	16f/JJ	.	.	.	.	.	.	.	.	.	.	.	.
!	!	!	!	!LO:TX:a:t=P:problem:mixedbeam	!	!	!	!	!	!	!	!	!	!	!	!
2C/	.	.	8C/L	8e/L	.	4ee\	.	.	.	.	.	.	.	.	.	.
.	.	.	16C/L	16ee\L	.	.	.	.	.	.	.	.	.	.	.	.
.	.	.	16D/JJ	16ff\JJ	.	.	.	.	.	.	.	.	.	.	.	.
!	!	!	!	!	!	!LO:SIC:v:t=custos ee	!	!	!	!	!	!	!	!	!	!
!	!	!	!	!	!	!LO:TX:t=P:problem:kreska pseudotaktowa	!	!	!	!	!	!	!	!	!	!
.	.	.	16C/LL	16ee\LL	.	4r	.	.	.	.	.	.	.	.	.	.
.	.	.	16BB/	16dd\	.	.	.	.	.	.	.	.	.	.	.	.
.	.	.	16AA/	16cc\	.	.	.	.	.	.	.	.	.	.	.	.
!	!	!	!LO:SIC:v:t=custos AA	!LO:TX:t=P:problem:kreska pseudotaktowa	!	!	!	!	!	!	!	!	!	!	!	!
!	!	!	!LO:TX:t=P:problem:kreska pseudotaktowa	!	!	!	!	!	!	!	!	!	!	!	!	!
.	.	.	16GG/JJ	16b\JJ	.	.	.	.	.	.	.	.	.	.	.	.
!	!	!	!LO:TX:a:t=P:problem:mixedbeam	!	!	!	!	!	!	!	!	!	!	!	!	!
!	!	!	!LO:LB:g=original	!	!	!LO:LB:g=original	!	!	!	!	!	!	!	!	!	!
2AA/	.	.	8AA/L	8cc\L	.	8r	.	.	.	.	.	.	.	.	.	.
.	.	.	16A\L	16cc\L	.	8ee\L	.	.	.	.	.	.	.	.	.	.
.	.	.	16B\JJ	16dd\JJ	.	.	.	.	.	.	.	.	.	.	.	.
.	.	.	16A\LL	16cc/LL	.	8ee\	.	.	.	.	.	.	.	.	.	.
.	.	.	16G\	16b/	.	.	.	.	.	.	.	.	.	.	.	.
.	.	.	16F\	16a/	.	8ee\J	.	.	.	.	.	.	.	.	.	.
!	!	!	!	!LO:SIC:v:t=custos f	!	!	!	!	!	!	!	!	!	!	!	!
.	.	.	16E\JJ	16g/JJ	.	.	.	.	.	.	.	.	.	.	.	.
!	!	!	!	!LO:TX:a:t=P:problem:mixedbeam	!	!	!	!	!	!	!	!	!	!	!	!
!LO:TX:t=P:problem:kreska pseudotaktowa	!	!	!	!LO:LB:g=original	!	!	!	!	!	!	!	!	!	!	!	!
2D/	.	.	8D\L	8f/L	.	4dd\	.	.	.	.	.	.	.	.	.	.
.	.	.	16D\L	16ff\L	.	.	.	.	.	.	.	.	.	.	.	.
.	.	.	16E\JJ	16gg\JJ	.	.	.	.	.	.	.	.	.	.	.	.
.	.	.	16D/LL	16ff\LL	.	8ff\L	.	.	.	.	.	.	.	.	.	.
.	.	.	16C/	16ee\	.	.	.	.	.	.	.	.	.	.	.	.
.	.	.	16BB/	16dd\	.	8ff\J	.	.	.	.	.	.	.	.	.	.
!	!	!	!LO:TX:t=P:problem:kreska pseudotaktowa	!LO:TX:t=P:problem:kreska pseudotaktowa	!	!	!	!	!	!	!	!	!	!	!	!
.	.	.	16AA/JJ	16cc\JJ	.	.	.	.	.	.	.	.	.	.	.	.
=6-	=6-	=6-	=6-	=6-	=6-	=6-	=6-	=6-	=6-	=6-	=6-	=6-	=6-	=6-	=6-	=6-
!	!	!	!LO:TX:a:t=P:problem:mixedbeam	!	!	!	!	!	!	!	!	!	!	!	!	!
2G\	.	.	8GG/L	8dd\L	.	2gg\	.	.	.	.	.	.	.	.	.	.
.	.	.	16G\L	16b\L	.	.	.	.	.	.	.	.	.	.	.	.
.	.	.	16A\JJ	16cc\JJ	.	.	.	.	.	.	.	.	.	.	.	.
.	.	.	16G\LL	16b/LL	.	.	.	.	.	.	.	.	.	.	.	.
.	.	.	16F\	16a/	.	.	.	.	.	.	.	.	.	.	.	.
.	.	.	16E\	16g/	.	.	.	.	.	.	.	.	.	.	.	.
.	.	.	16D\JJ	16f/JJ	.	.	.	.	.	.	.	.	.	.	.	.
2E\	.	.	16E\LL	16g/LL	.	2r	.	.	.	.	.	.	.	.	.	.
.	.	.	16F\	16a/	.	.	.	.	.	.	.	.	.	.	.	.
.	.	.	16G\	16b/	.	.	.	.	.	.	.	.	.	.	.	.
.	.	.	16F\JJ	16a/JJ	.	.	.	.	.	.	.	.	.	.	.	.
.	.	.	16E/LL	16g/LL	.	.	.	.	.	.	.	.	.	.	.	.
.	.	.	16D/	16f/	.	.	.	.	.	.	.	.	.	.	.	.
.	.	.	16C/	16e/	.	.	.	.	.	.	.	.	.	.	.	.
!	!	!	!LO:TX:t=P:problem:kreska pseudotaktowa	!LO:TX:t=P:problem:kreska pseudotaktowa	!	!	!	!	!	!	!	!	!	!	!	!
.	.	.	16BB/JJ	16d/JJ	.	.	.	.	.	.	.	.	.	.	.	.
4AA/	.	.	4AA/	2e/	.	2r	.	.	.	.	.	.	.	.	.	.
4BB/	.	.	4BB/	.	.	.	.	.	.	.	.	.	.	.	.	.
4C/	.	.	4C/	8r	.	8r	.	.	.	.	.	.	.	.	.	.
.	.	.	.	8ee\L	.	8cc/L	.	.	.	.	.	.	.	.	.	.
!LO:TX:t=P:problem:kreska pseudotaktowa	!	!	!	!	!	!	!	!	!	!	!	!	!	!	!	!
4D/	.	.	4D/	8dd\	.	8b/	.	.	.	.	.	.	.	.	.	.
!	!	!	!	!	!	!LO:TX:t=P:problem:kreska pseudotaktowa	!	!	!	!	!	!	!	!	!	!
.	.	.	.	8cc\J	.	8a/J	.	.	.	.	.	.	.	.	.	.
=7-	=7-	=7-	=7-	=7-	=7-	=7-	=7-	=7-	=7-	=7-	=7-	=7-	=7-	=7-	=7-	=7-
2E\	#:4r#	.	2E\	2b/	.	8g#X/	.	00r	.	.	00r	.	.	00r	.	.
.	.	.	.	.	.	4a/	.	.	.	.	.	.	.	.	.	.
.	.	.	.	.	.	8g#X/	.	.	.	.	.	.	.	.	.	.
!LO:SIC:v:t=custos AA	!	!	!LO:TX:t=P:problem:kreska pseudotaktowa	!LO:TX:t=P:problem:kreska pseudotaktowa	!	!LO:TX:a:t=P:problem:mixedbeam	!	!	!	!	!	!	!	!	!	!
2AA/	.	.	2AA/	2cc\	.	8a/L	.	.	.	.	.	.	.	.	.	.
.	.	.	.	.	.	8ee\	.	.	.	.	.	.	.	.	.	.
.	.	.	.	.	.	8ee\	.	.	.	.	.	.	.	.	.	.
!	!	!	!	!	!	!LO:TX:t=P:problem:kreska pseudotaktowa	!	!	!	!	!	!	!	!	!	!
.	.	.	.	.	.	8ee\J	.	.	.	.	.	.	.	.	.	.
!LO:LB:g=original	!	!	!	!	!	!	!	!	!	!	!	!	!	!	!	!
2AA/	6	.	8r	8r	.	4ff\	.	.	.	.	.	.	.	.	.	.
.	.	.	8AA/L	8cc\L	.	.	.	.	.	.	.	.	.	.	.	.
.	.	.	8AA/	8cc\	.	4r	.	.	.	.	.	.	.	.	.	.
.	.	.	8AA/J	8cc\J	.	.	.	.	.	.	.	.	.	.	.	.
!LO:TX:t=P:problem:kreska pseudotaktowa	!	!	!	!	!	!	!	!	!	!	!	!	!	!	!	!
2BB/	#	.	4BB/	4dd\	.	8r	.	.	.	.	.	.	.	.	.	.
.	.	.	.	.	.	8ff#X\L	.	.	.	.	.	.	.	.	.	.
!	!	!	!LO:TX:t=P:problem:kreska pseudotaktowa	!LO:TX:t=P:problem:kreska pseudotaktowa	!	!	!	!	!	!	!	!	!	!	!	!
.	.	.	4r	4r	.	8ff#\	.	.	.	.	.	.	.	.	.	.
!	!	!	!	!	!	!LO:TX:t=P:problem:kreska pseudotaktowa	!	!	!	!	!	!	!	!	!	!
.	.	.	.	.	.	8ff#\J	.	.	.	.	.	.	.	.	.	.
=8-	=8-	=8-	=8-	=8-	=8-	=8-	=8-	=8-	=8-	=8-	=8-	=8-	=8-	=8-	=8-	=8-
2BB/	6	.	8r	8r	.	4gg\	.	.	.	.	.	.	.	.	.	.
.	.	.	8BB/L	8dd\L	.	.	.	.	.	.	.	.	.	.	.	.
.	.	.	8BB/	8dd\	.	4r	.	.	.	.	.	.	.	.	.	.
.	.	.	8BB/J	8dd\J	.	.	.	.	.	.	.	.	.	.	.	.
2C/	.	.	4C/	4ee\	.	8r	.	.	.	.	.	.	.	.	.	.
.	.	.	.	.	.	8gg\L	.	.	.	.	.	.	.	.	.	.
!	!	!	!LO:SIC:v:t=custos C	!LO:SIC:v:t=custos ee	!	!	!	!	!	!	!	!	!	!	!	!
!	!	!	!LO:TX:t=P:problem:kreska pseudotaktowa	!LO:TX:t=P:problem:kreska pseudotaktowa	!	!	!	!	!	!	!	!	!	!	!	!
.	.	.	4r	4r	.	8gg\	.	.	.	.	.	.	.	.	.	.
!	!	!	!	!	!	!LO:TX:t=P:problem:kreska pseudotaktowa	!	!	!	!	!	!	!	!	!	!
.	.	.	.	.	.	8gg\J	.	.	.	.	.	.	.	.	.	.
!	!	!	!LO:LB:g=original	!LO:LB:g=original	!	!	!	!	!	!	!	!	!	!	!	!
2C/	6	.	8r	8r	.	8aa\L	.	.	.	.	.	.	.	.	.	.
.	.	.	8C/L	8ee\L	.	16aa\L	.	.	.	.	.	.	.	.	.	.
.	.	.	.	.	.	16bb\JJ	.	.	.	.	.	.	.	.	.	.
.	.	.	8C/	8ee\	.	16aa\LL	.	.	.	.	.	.	.	.	.	.
.	.	.	.	.	.	16gg\	.	.	.	.	.	.	.	.	.	.
.	.	.	8C/J	8ee\J	.	16ffny\	.	.	.	.	.	.	.	.	.	.
.	.	.	.	.	.	16ee\JJ	.	.	.	.	.	.	.	.	.	.
!	!	!	!	!	!	!LO:SIC:v:t=custos dd	!	!	!	!	!	!	!	!	!	!
!LO:TX:t=P:problem:kreska pseudotaktowa	!	!	!LO:TX:t=P:problem:kreska pseudotaktowa	!	!	!LO:TX:t=P:problem:kreska pseudotaktowa	!	!	!	!	!	!	!	!	!	!
2D/	.	.	2D/	2ff\	.	2dd\	.	.	.	.	.	.	.	.	.	.
=9-	=9-	=9-	=9-	=9-	=9-	=9-	=9-	=9-	=9-	=9-	=9-	=9-	=9-	=9-	=9-	=9-
!	!	!	!	!LO:TX:t=P:problem:kreska pseudotaktowa	!	!LO:LB:g=original	!	!	!	!	!	!	!	!	!	!
2D/	.	.	8r	0r	.	2r	.	00r	.	.	00r	.	.	00r	.	.
.	.	.	8D/L	.	.	.	.	.	.	.	.	.	.	.	.	.
.	.	.	8D/	.	.	.	.	.	.	.	.	.	.	.	.	.
.	.	.	8D/J	.	.	.	.	.	.	.	.	.	.	.	.	.
2GG/	.	.	8BB/L	.	.	8r	.	.	.	.	.	.	.	.	.	.
.	.	.	8D/	.	.	8dd\L	.	.	.	.	.	.	.	.	.	.
.	.	.	8BB/	.	.	8dd\	.	.	.	.	.	.	.	.	.	.
!	!	!	!LO:TX:t=P:problem:kreska pseudotaktowa	!	!	!LO:TX:t=P:problem:kreska pseudotaktowa	!	!	!	!	!	!	!	!	!	!
.	.	.	8D/J	.	.	8dd\J	.	.	.	.	.	.	.	.	.	.
!	!	!	!LO:TX:a:t=P:problem:mixedbeam	!	!	!	!	!	!	!	!	!	!	!	!	!
2GG/	.	.	8GG/L	.	.	8b\L	.	.	.	.	.	.	.	.	.	.
.	.	.	8G\J	.	.	8dd\J	.	.	.	.	.	.	.	.	.	.
.	.	.	8G\L	.	.	8b/L	.	.	.	.	.	.	.	.	.	.
.	.	.	16F\L	.	.	16a/L	.	.	.	.	.	.	.	.	.	.
.	.	.	16E\JJ	.	.	16gny/JJ	.	.	.	.	.	.	.	.	.	.
!LO:TX:t=P:problem:kreska pseudotaktowa	!	!	!	!	!	!	!	!	!	!	!	!	!	!	!	!
2D/	.	.	16D\LL	.	.	16f#X/LL	.	.	.	.	.	.	.	.	.	.
.	.	.	16G\	.	.	16b/	.	.	.	.	.	.	.	.	.	.
.	.	.	16F\	.	.	16a/	.	.	.	.	.	.	.	.	.	.
.	.	.	16E\JJ	.	.	16g/JJ	.	.	.	.	.	.	.	.	.	.
.	.	.	16D/LL	.	.	16f#/LL	.	.	.	.	.	.	.	.	.	.
.	.	.	16C/	.	.	16e/	.	.	.	.	.	.	.	.	.	.
.	.	.	16BB/	.	.	16d/	.	.	.	.	.	.	.	.	.	.
!	!	!	!LO:TX:t=P:problem:kreska pseudotaktowa	!	!	!LO:TX:t=P:problem:kreska pseudotaktowa	!	!	!	!	!	!	!	!	!	!
.	.	.	16AA/JJ	.	.	16c/JJ	.	.	.	.	.	.	.	.	.	.
=10-	=10-	=10-	=10-	=10-	=10-	=10-	=10-	=10-	=10-	=10-	=10-	=10-	=10-	=10-	=10-	=10-
!	!	!	!	!	!	!LO:TX:a:t=P:problem:mixedbeam	!	!	!	!	!	!	!	!	!	!
4GG/	.	.	8GG/L	8r	.	8B/L	.	.	.	.	.	.	.	.	.	.
.	.	.	16BB/L	8dd\L	.	8b\J	.	.	.	.	.	.	.	.	.	.
.	.	.	16AA/JJ	.	.	.	.	.	.	.	.	.	.	.	.	.
4BB/	6	.	16BB/LL	8dd\	.	4g/	.	.	.	.	.	.	.	.	.	.
.	.	.	16GG/	.	.	.	.	.	.	.	.	.	.	.	.	.
.	.	.	16AA/	8dd\J	.	.	.	.	.	.	.	.	.	.	.	.
.	.	.	16BB/JJ	.	.	.	.	.	.	.	.	.	.	.	.	.
4C/	.	.	16C/LL	4ee\	.	8r	.	.	.	.	.	.	.	.	.	.
.	.	.	16D/	.	.	.	.	.	.	.	.	.	.	.	.	.
.	.	.	16C/	.	.	8e/L	.	.	.	.	.	.	.	.	.	.
.	.	.	16BB/JJ	.	.	.	.	.	.	.	.	.	.	.	.	.
!	!	!	!	!LO:TX:t=P:problem:kreska pseudotaktowa	!	!	!	!	!	!	!	!	!	!	!	!
4AA/	.	.	16AA/LL	4r	.	8e/	.	.	.	.	.	.	.	.	.	.
.	.	.	16GG/	.	.	.	.	.	.	.	.	.	.	.	.	.
!	!	!	!	!	!	!LO:TX:t=P:problem:kreska pseudotaktowa	!	!	!	!	!	!	!	!	!	!
.	.	.	16FF/	.	.	8e/J	.	.	.	.	.	.	.	.	.	.
!	!	!	!LO:TX:t=P:problem:kreska pseudotaktowa	!	!	!	!	!	!	!	!	!	!	!	!	!
.	.	.	16EE/JJ	.	.	.	.	.	.	.	.	.	.	.	.	.
!	!	!	!LO:TX:a:t=P:problem:mixedbeam	!	!	!LO:TX:a:t=P:problem:mixedbeam	!	!	!	!	!	!	!	!	!	!
2D/	.	.	8DD/L	8r	.	8fny/L	.	.	.	.	.	.	.	.	.	.
.	.	.	16D\L	8a/L	.	16ff\L	.	.	.	.	.	.	.	.	.	.
.	.	.	16E\JJ	.	.	16gg\JJ	.	.	.	.	.	.	.	.	.	.
.	.	.	16D/LL	8a/	.	16ff\LL	.	.	.	.	.	.	.	.	.	.
.	.	.	16C/	.	.	16ee\	.	.	.	.	.	.	.	.	.	.
.	.	.	16BB/	8a/J	.	16dd\	.	.	.	.	.	.	.	.	.	.
.	.	.	16AA/JJ	.	.	16cc\JJ	.	.	.	.	.	.	.	.	.	.
!LO:TX:t=P:problem:kreska pseudotaktowa	!	!	!LO:TX:a:t=P:problem:mixedbeam	!	!	!	!	!	!	!	!	!	!	!	!	!
2G\	.	.	8GG/L	4b/	.	8b/L	.	.	.	.	.	.	.	.	.	.
.	.	.	16G\L	.	.	16b/L	.	.	.	.	.	.	.	.	.	.
.	.	.	16A\JJ	.	.	16cc/JJ	.	.	.	.	.	.	.	.	.	.
!	!	!	!	!LO:TX:t=P:problem:kreska pseudotaktowa	!	!	!	!	!	!	!	!	!	!	!	!
.	.	.	16G\LL	4r	.	16b/LL	.	.	.	.	.	.	.	.	.	.
.	.	.	16F\	.	.	16a/	.	.	.	.	.	.	.	.	.	.
.	.	.	16E\	.	.	16g/	.	.	.	.	.	.	.	.	.	.
!	!	!	!LO:SIC:v:t=custos E	!	!	!LO:TX:t=P:problem:kreska pseudotaktowa	!	!	!	!	!	!	!	!	!	!
!	!	!	!LO:TX:t=P:problem:kreska pseudotaktowa	!	!	!	!	!	!	!	!	!	!	!	!	!
.	.	.	16D\JJ	.	.	16f/JJ	.	.	.	.	.	.	.	.	.	.
=11-	=11-	=11-	=11-	=11-	=11-	=11-	=11-	=11-	=11-	=11-	=11-	=11-	=11-	=11-	=11-	=11-
!	!	!	!LO:LB:g=original	!	!	!	!	!	!	!	!	!	!	!	!	!
2E\	.	.	8E\L	8r	.	8g/L	.	00r	.	.	00r	.	.	00r	.	.
.	.	.	16E\L	8b/L	.	16g/L	.	.	.	.	.	.	.	.	.	.
.	.	.	16F\JJ	.	.	16a/JJ	.	.	.	.	.	.	.	.	.	.
.	.	.	16E/LL	8b/	.	16g/LL	.	.	.	.	.	.	.	.	.	.
.	.	.	16D/	.	.	16f/	.	.	.	.	.	.	.	.	.	.
.	.	.	16C/	8b/J	.	16e/	.	.	.	.	.	.	.	.	.	.
.	.	.	16BB/JJ	.	.	16d/JJ	.	.	.	.	.	.	.	.	.	.
!	!	!	!LO:TX:a:t=P:problem:mixedbeam	!	!	!LO:TX:a:t=P:problem:mixedbeam	!	!	!	!	!	!	!	!	!	!
2A\	.	.	8AA/L	4a/	.	8c/L	.	.	.	.	.	.	.	.	.	.
.	.	.	16A\L	.	.	16cc\L	.	.	.	.	.	.	.	.	.	.
.	.	.	16B\JJ	.	.	16dd\JJ	.	.	.	.	.	.	.	.	.	.
.	.	.	16A\LL	8cc#X\L	.	16cc/LL	.	.	.	.	.	.	.	.	.	.
.	.	.	16G\	.	.	16b/	.	.	.	.	.	.	.	.	.	.
!	!	!	!	!LO:TX:t=P:problem:kreska pseudotaktowa	!	!	!	!	!	!	!	!	!	!	!	!
.	.	.	16F\	8cc#\J	.	16a/	.	.	.	.	.	.	.	.	.	.
!	!	!	!	!	!	!LO:SIC:v:t=custos a	!	!	!	!	!	!	!	!	!	!
!	!	!	!LO:TX:t=P:problem:kreska pseudotaktowa	!	!	!LO:TX:t=P:problem:kreska pseudotaktowa	!	!	!	!	!	!	!	!	!	!
.	.	.	16E\JJ	.	.	16g/JJ	.	.	.	.	.	.	.	.	.	.
!	!	!	!	!	!	!LO:TX:a:t=P:problem:mixedbeam	!	!	!	!	!	!	!	!	!	!
!	!	!	!	!	!	!LO:LB:g=original	!	!	!	!	!	!	!	!	!	!
2D/	.	.	8F\L	8dd\L	.	8a/L	.	.	.	.	.	.	.	.	.	.
.	.	.	8D\	8ff\	.	8aa\	.	.	.	.	.	.	.	.	.	.
.	.	.	8D\	8ff\	.	8aa\	.	.	.	.	.	.	.	.	.	.
.	.	.	8D\J	8ff\J	.	8aa\J	.	.	.	.	.	.	.	.	.	.
8G\L	6	.	8G\L	8ee\L	.	8gg\L	.	.	.	.	.	.	.	.	.	.
8D\J	.	.	8D\J	8dd\J	.	8ff\J	.	.	.	.	.	.	.	.	.	.
!LO:TX:t=P:problem:kreska pseudotaktowa	!	!	!LO:TX:t=P:problem:kreska pseudotaktowa	!	!	!LO:TX:t=P:problem:kreska pseudotaktowa	!	!	!	!	!	!	!	!	!	!
4A\	#	.	4A\	8dd\L	.	4ee\	.	.	.	.	.	.	.	.	.	.
!	!	!	!	!LO:TX:t=P:problem:kreska pseudotaktowa	!	!	!	!	!	!	!	!	!	!	!	!
.	.	.	.	8cc#X\J	.	.	.	.	.	.	.	.	.	.	.	.
=12-	=12-	=12-	=12-	=12-	=12-	=12-	=12-	=12-	=12-	=12-	=12-	=12-	=12-	=12-	=12-	=12-
8D/L	.	.	8D/L	8dd\L	.	8dd\L	.	.	.	.	.	.	.	.	.	.
8C/	.	.	8C/	8ee\	.	8gg\	.	.	.	.	.	.	.	.	.	.
8C/	.	.	8C/	8ee\	.	8gg\	.	.	.	.	.	.	.	.	.	.
8C/J	.	.	8C/J	8ee\J	.	8gg\J	.	.	.	.	.	.	.	.	.	.
8F\L	6	.	8F\L	8dd\L	.	8ff\L	.	.	.	.	.	.	.	.	.	.
8C\J	.	.	8C\J	8ccny\	.	8ee\J	.	.	.	.	.	.	.	.	.	.
!	!	!	!LO:TX:t=P:problem:kreska pseudotaktowa	!	!	!LO:TX:t=P:problem:kreska pseudotaktowa	!	!	!	!	!	!	!	!	!	!
4G\	.	.	4G\	8cc\	.	4dd\	.	.	.	.	.	.	.	.	.	.
!	!	!	!	!LO:SIC:v:t=custos cc	!	!	!	!	!	!	!	!	!	!	!	!
!	!	!	!	!LO:TX:t=P:problem:kreska pseudotaktowa	!	!	!	!	!	!	!	!	!	!	!	!
.	.	.	.	8b\J	.	.	.	.	.	.	.	.	.	.	.	.
!	!	!	!	!LO:LB:g=original	!	!	!	!	!	!	!	!	!	!	!	!
2C/	.	.	8C/L	8cc\L	.	8cc\L	.	.	.	.	.	.	.	.	.	.
.	.	.	8C/	8cc\	.	8ee\	.	.	.	.	.	.	.	.	.	.
.	.	.	8C/	8cc\	.	8ee\	.	.	.	.	.	.	.	.	.	.
.	.	.	8C/J	8cc\J	.	8ee\J	.	.	.	.	.	.	.	.	.	.
4D/	65	.	4D/	8b/L	.	8dd\L	.	.	.	.	.	.	.	.	.	.
.	.	.	.	8a/	.	8cc\J	.	.	.	.	.	.	.	.	.	.
!LO:TX:t=P:problem:kreska pseudotaktowa	!	!	!	!	!	!LO:TX:t=P:problem:kreska pseudotaktowa	!	!	!	!	!	!	!	!	!	!
!LO:SIC:v:t=custos AA	!	!	!	!	!	!	!	!	!	!	!	!	!	!	!	!
4E\	4#r	.	4E\	8a/	.	4b/	.	.	.	.	.	.	.	.	.	.
!	!	!	!	!LO:TX:t=P:problem:kreska pseudotaktowa	!	!	!	!	!	!	!	!	!	!	!	!
.	.	.	.	8g#X/J	.	.	.	.	.	.	.	.	.	.	.	.
=13-	=13-	=13-	=13-	=13-	=13-	=13-	=13-	=13-	=13-	=13-	=13-	=13-	=13-	=13-	=13-	=13-
!LO:LB:g=original	!	!	!	!	!	!	!	!	!	!	!	!	!	!	!	!
4.AA/	.	.	4.AA/	4.a/	.	4.a/	.	00r	.	.	00r	.	.	00r	.	.
8BB/	6	.	8BB/	8gny/	.	8dd\	.	.	.	.	.	.	.	.	.	.
4C/	.	.	4C/	8e/L	.	8cc\L	.	.	.	.	.	.	.	.	.	.
.	.	.	.	8g/J	.	8b\J	.	.	.	.	.	.	.	.	.	.
!	!	!	!LO:TX:t=P:problem:kreska pseudotaktowa	!	!	!LO:TX:t=P:problem:kreska pseudotaktowa	!	!	!	!	!	!	!	!	!	!
4D/	4#r	.	4D/	8g/L	.	4a/	.	.	.	.	.	.	.	.	.	.
!	!	!	!	!LO:TX:b:t=P:problem:# below	!	!	!	!	!	!	!	!	!	!	!	!
!	!	!	!	!LO:TX:t=P:problem:kreska pseudotaktowa	!	!	!	!	!	!	!	!	!	!	!	!
.	.	.	.	8f#X/J	.	.	.	.	.	.	.	.	.	.	.	.
4.GG/	.	.	4.GG/	4.g/	.	4.b/	.	.	.	.	.	.	.	.	.	.
!	!	!LO:DY:b:t=Piano	!	!	!	!	!LO:DY:b:t=Piano	!	!	!	!	!	!	!	!	!
8BB/	6	p	8BB/	8g/	.	8dd\	p	.	.	.	.	.	.	.	.	.
4C/	.	.	4C/	8e/L	.	8cc\L	.	.	.	.	.	.	.	.	.	.
!	!	!	!	!	!LO:DY:b:t=Piano	!	!	!	!	!	!	!	!	!	!	!
.	.	.	.	8g/J	p	8b\J	.	.	.	.	.	.	.	.	.	.
!LO:TX:t=P:problem:kreska pseudotaktowa	!	!	!	!	!	!	!	!	!	!	!	!	!	!	!	!
4D/	#	.	4D/	8g/L	.	4a/	.	.	.	.	.	.	.	.	.	.
.	.	.	.	8f#X/J	.	.	.	.	.	.	.	.	.	.	.	.
=14-	=14-	=14-	=14-	=14-	=14-	=14-	=14-	=14-	=14-	=14-	=14-	=14-	=14-	=14-	=14-	=14-
2GG/	.	.	2GG/	2g/	.	2b/	.	.	.	.	.	.	.	.	.	.
!	!	!	!LO:TX:b:t=16	!LO:TX:t=P:problem:kreska pseudotaktowa	!	!LO:TX:t=P:problem:kreska pseudotaktowa	!	!	!	!	!	!	!	!	!	!
2r	.	.	2r	2r	.	2r	.	.	.	.	.	.	.	.	.	.
!LO:TX:t=P:problem:kreska pseudotaktowa	!	!	!	!	!	!LO:TX:b:t=6	!	!	!	!	!	!	!	!	!	!
1GG	.	.	00r	8r	.	00r	.	.	.	.	.	.	.	.	.	.
.	.	.	.	8dd\L	.	.	.	.	.	.	.	.	.	.	.	.
.	.	.	.	8dd\	.	.	.	.	.	.	.	.	.	.	.	.
.	.	.	.	8dd\J	.	.	.	.	.	.	.	.	.	.	.	.
.	.	.	.	8b\L	.	.	.	.	.	.	.	.	.	.	.	.
.	.	.	.	16dd\L	.	.	.	.	.	.	.	.	.	.	.	.
.	.	.	.	16cc\JJ	.	.	.	.	.	.	.	.	.	.	.	.
.	.	.	.	16b/LL	.	.	.	.	.	.	.	.	.	.	.	.
.	.	.	.	16a/	.	.	.	.	.	.	.	.	.	.	.	.
.	.	.	.	16g/	.	.	.	.	.	.	.	.	.	.	.	.
!	!	!	!	!LO:TX:t=P:problem:kreska pseudotaktowa	!	!	!	!	!	!	!	!	!	!	!	!
.	.	.	.	16fny/JJ	.	.	.	.	.	.	.	.	.	.	.	.
=15-	=15-	=15-	=15-	=15-	=15-	=15-	=15-	=15-	=15-	=15-	=15-	=15-	=15-	=15-	=15-	=15-
!LO:TX:b:t=Solo	!	!	!	!LO:TX:a:t=P:problem:mixedbeam	!	!	!	!	!	!	!	!	!	!	!	!
2GG/	.	.	.	8g/L	.	.	.	00r	.	.	00r	.	.	00r	.	.
.	.	.	.	8gg\	.	.	.	.	.	.	.	.	.	.	.	.
.	.	.	.	8gg\	.	.	.	.	.	.	.	.	.	.	.	.
.	.	.	.	8gg\J	.	.	.	.	.	.	.	.	.	.	.	.
2C/	.	.	.	8ee\L	.	.	.	.	.	.	.	.	.	.	.	.
.	.	.	.	16gg\L	.	.	.	.	.	.	.	.	.	.	.	.
.	.	.	.	16ff\JJ	.	.	.	.	.	.	.	.	.	.	.	.
.	.	.	.	16ee\LL	.	.	.	.	.	.	.	.	.	.	.	.
.	.	.	.	16dd\	.	.	.	.	.	.	.	.	.	.	.	.
.	.	.	.	16cc\	.	.	.	.	.	.	.	.	.	.	.	.
!	!	!	!	!LO:SIC:v:t=custos a	!	!	!	!	!	!	!	!	!	!	!	!
.	.	.	.	16b\JJ	.	.	.	.	.	.	.	.	.	.	.	.
!	!	!	!	!LO:LB:g=original	!	!	!	!	!	!	!	!	!	!	!	!
4F\	.	.	.	16a/LL	.	.	.	.	.	.	.	.	.	.	.	.
.	.	.	.	16b/	.	.	.	.	.	.	.	.	.	.	.	.
.	.	.	.	16cc/	.	.	.	.	.	.	.	.	.	.	.	.
.	.	.	.	16a/JJ	.	.	.	.	.	.	.	.	.	.	.	.
4D/	.	.	.	16dd\LL	.	.	.	.	.	.	.	.	.	.	.	.
.	.	.	.	16cc\	.	.	.	.	.	.	.	.	.	.	.	.
.	.	.	.	16b\	.	.	.	.	.	.	.	.	.	.	.	.
.	.	.	.	16a\JJ	.	.	.	.	.	.	.	.	.	.	.	.
4E\	.	.	.	16g/LL	.	.	.	.	.	.	.	.	.	.	.	.
.	.	.	.	16a/	.	.	.	.	.	.	.	.	.	.	.	.
.	.	.	.	16b/	.	.	.	.	.	.	.	.	.	.	.	.
.	.	.	.	16cc/JJ	.	.	.	.	.	.	.	.	.	.	.	.
!LO:TX:t=P:problem:kreska pseudotaktowa	!	!	!	!	!	!	!	!	!	!	!	!	!	!	!	!
4D/	.	.	.	16dd\LL	.	.	.	.	.	.	.	.	.	.	.	.
.	.	.	.	16ee\	.	.	.	.	.	.	.	.	.	.	.	.
.	.	.	.	16ff\	.	.	.	.	.	.	.	.	.	.	.	.
!	!	!	!	!LO:TX:t=P:problem:kreska pseudotaktowa	!	!	!	!	!	!	!	!	!	!	!	!
.	.	.	.	16gg\JJ	.	.	.	.	.	.	.	.	.	.	.	.
=16-	=16-	=16-	=16-	=16-	=16-	=16-	=16-	=16-	=16-	=16-	=16-	=16-	=16-	=16-	=16-	=16-
4D/	.	.	.	8aa\L	.	.	.	.	.	.	.	.	.	.	.	.
.	.	.	.	8ff\J	.	.	.	.	.	.	.	.	.	.	.	.
4G\	65	.	.	8ee\L	.	.	.	.	.	.	.	.	.	.	.	.
.	.	.	.	8dd\J	.	.	.	.	.	.	.	.	.	.	.	.
4A\	.	.	.	8cc#X\L	.	.	.	.	.	.	.	.	.	.	.	.
.	.	.	.	8a\J	.	.	.	.	.	.	.	.	.	.	.	.
!LO:TX:t=P:problem:kreska pseudotaktowa	!	!	!	!	!	!	!	!	!	!	!	!	!	!	!	!
4F\	6	.	.	2dd\	.	.	.	.	.	.	.	.	.	.	.	.
!	!	!	!	!	!	!LO:SIC:v:t=custos gg	!	!	!	!	!	!	!	!	!	!
!	!	!	!	!	!	!LO:TX:t=P:problem:kreska pseudotaktowa	!	!	!	!	!	!	!	!	!	!
4G\	.	.	00r	.	.	0r	.	.	.	.	.	.	.	.	.	.
4A\	.	.	.	4cc#X\	.	.	.	.	.	.	.	.	.	.	.	.
8D/L	.	.	.	2dd\	.	.	.	.	.	.	.	.	.	.	.	.
8C/	.	.	.	.	.	.	.	.	.	.	.	.	.	.	.	.
8BB/	.	.	.	.	.	.	.	.	.	.	.	.	.	.	.	.
!LO:TX:t=P:problem:kreska pseudotaktowa	!	!	!	!	!	!	!	!	!	!	!	!	!	!	!	!
8AA/J	.	.	.	.	.	.	.	.	.	.	.	.	.	.	.	.
=17-	=17-	=17-	=17-	=17-	=17-	=17-	=17-	=17-	=17-	=17-	=17-	=17-	=17-	=17-	=17-	=17-
!	!	!	!	!LO:TX:a:t=5	!	!	!	!	!	!	!	!	!	!	!	!
4GG/	.	.	.	00r	.	.	.	00r	.	.	00r	.	.	00r	.	.
4BB/	.	.	.	.	.	.	.	.	.	.	.	.	.	.	.	.
4C/	.	.	.	.	.	.	.	.	.	.	.	.	.	.	.	.
4D/	.	.	.	.	.	.	.	.	.	.	.	.	.	.	.	.
!	!	!	!	!	!	!LO:LB:g=original	!	!	!	!	!	!	!	!	!	!
2GG/	.	.	.	.	.	8r	.	.	.	.	.	.	.	.	.	.
.	.	.	.	.	.	8gg\L	.	.	.	.	.	.	.	.	.	.
.	.	.	.	.	.	8gg\	.	.	.	.	.	.	.	.	.	.
.	.	.	.	.	.	8gg\J	.	.	.	.	.	.	.	.	.	.
!LO:TX:b:t=dol	!	!	!	!	!	!	!	!	!	!	!	!	!	!	!	!
!LO:TX:t=P:problem:kreska pseudotaktowa	!	!	!	!	!	!	!	!	!	!	!	!	!	!	!	!
!LO:SIC:v:t=custos C	!	!	!	!	!	!	!	!	!	!	!	!	!	!	!	!
2C/	.	.	.	.	.	8ee\L	.	.	.	.	.	.	.	.	.	.
.	.	.	.	.	.	16gg\L	.	.	.	.	.	.	.	.	.	.
.	.	.	.	.	.	16ff\JJ	.	.	.	.	.	.	.	.	.	.
.	.	.	.	.	.	16ee\LL	.	.	.	.	.	.	.	.	.	.
.	.	.	.	.	.	16dd\	.	.	.	.	.	.	.	.	.	.
.	.	.	.	.	.	16cc\	.	.	.	.	.	.	.	.	.	.
!	!	!	!	!	!	!LO:TX:t=P:problem:kreska pseudotaktowa	!	!	!	!	!	!	!	!	!	!
.	.	.	.	.	.	16b\JJ	.	.	.	.	.	.	.	.	.	.
=18-	=18-	=18-	=18-	=18-	=18-	=18-	=18-	=18-	=18-	=18-	=18-	=18-	=18-	=18-	=18-	=18-
!LO:LB:g=original	!	!	!	!	!	!	!	!	!	!	!	!	!	!	!	!
2C/	.	.	.	.	.	16cc\LL	.	.	.	.	.	.	.	.	.	.
.	.	.	.	.	.	16dd\	.	.	.	.	.	.	.	.	.	.
.	.	.	.	.	.	16ee\	.	.	.	.	.	.	.	.	.	.
.	.	.	.	.	.	16dd\JJ	.	.	.	.	.	.	.	.	.	.
.	.	.	.	.	.	16cc/LL	.	.	.	.	.	.	.	.	.	.
.	.	.	.	.	.	16b/	.	.	.	.	.	.	.	.	.	.
.	.	.	.	.	.	16a/	.	.	.	.	.	.	.	.	.	.
.	.	.	.	.	.	16g/JJ	.	.	.	.	.	.	.	.	.	.
!	!	!	!	!	!	!LO:TX:a:t=P:problem:mixedbeam	!	!	!	!	!	!	!	!	!	!
2F\	.	.	.	.	.	16a/LL	.	.	.	.	.	.	.	.	.	.
.	.	.	.	.	.	16aa\	.	.	.	.	.	.	.	.	.	.
.	.	.	.	.	.	16aa\	.	.	.	.	.	.	.	.	.	.
.	.	.	.	.	.	16gg\JJ	.	.	.	.	.	.	.	.	.	.
.	.	.	.	.	.	16ff\LL	.	.	.	.	.	.	.	.	.	.
.	.	.	.	.	.	16gg\	.	.	.	.	.	.	.	.	.	.
.	.	.	.	.	.	16ff\	.	.	.	.	.	.	.	.	.	.
!	!	!	!	!	!	!LO:TX:t=P:problem:kreska pseudotaktowa	!	!	!	!	!	!	!	!	!	!
.	.	.	.	.	.	16ee\JJ	.	.	.	.	.	.	.	.	.	.
4G\	.	.	00r	.	.	16dd\LL	.	.	.	.	.	.	.	.	.	.
.	.	.	.	.	.	16gg\	.	.	.	.	.	.	.	.	.	.
.	.	.	.	.	.	16gg\	.	.	.	.	.	.	.	.	.	.
.	.	.	.	.	.	16ff\JJ	.	.	.	.	.	.	.	.	.	.
4C/	.	.	.	.	.	16ee\LL	.	.	.	.	.	.	.	.	.	.
.	.	.	.	.	.	16cc\	.	.	.	.	.	.	.	.	.	.
.	.	.	.	.	.	16cc\	.	.	.	.	.	.	.	.	.	.
.	.	.	.	.	.	16b\JJ	.	.	.	.	.	.	.	.	.	.
4D/	.	.	.	.	.	16a\LL	.	.	.	.	.	.	.	.	.	.
.	.	.	.	.	.	16dd\	.	.	.	.	.	.	.	.	.	.
.	.	.	.	.	.	16dd\	.	.	.	.	.	.	.	.	.	.
.	.	.	.	.	.	16cc\JJ	.	.	.	.	.	.	.	.	.	.
!LO:TX:t=P:problem:kreska pseudotaktowa	!	!	!	!	!	!	!	!	!	!	!	!	!	!	!	!
4G\	.	.	.	.	.	16b/LL	.	.	.	.	.	.	.	.	.	.
.	.	.	.	.	.	16cc/	.	.	.	.	.	.	.	.	.	.
.	.	.	.	.	.	16b/	.	.	.	.	.	.	.	.	.	.
!	!	!	!	!	!	!LO:TX:t=P:problem:kreska pseudotaktowa	!	!	!	!	!	!	!	!	!	!
.	.	.	.	.	.	16a/JJ	.	.	.	.	.	.	.	.	.	.
=19-	=19-	=19-	=19-	=19-	=19-	=19-	=19-	=19-	=19-	=19-	=19-	=19-	=19-	=19-	=19-	=19-
!	!	!	!	!LO:TX:t=P:problem:kreska pseudotaktowa	!	!	!	!	!	!	!	!	!	!	!	!
4E\	.	.	.	1r	.	4.g/	.	00r	.	.	00r	.	.	00r	.	.
4C/	.	.	.	.	.	.	.	.	.	.	.	.	.	.	.	.
.	.	.	.	.	.	8a/	.	.	.	.	.	.	.	.	.	.
!	!	!	!	!	!	!LO:SIC:v:t=custos g	!	!	!	!	!	!	!	!	!	!
!	!	!	!	!	!	!LO:TX:t=P:problem:kreska pseudotaktowa	!	!	!	!	!	!	!	!	!	!
2D/	#	.	.	.	.	2a/	.	.	.	.	.	.	.	.	.	.
!	!	!	!	!	!	!LO:TX:a:t=P:problem:mixedbeam	!	!	!	!	!	!	!	!	!	!
!LO:TX:t=P:problem:kreska pseudotaktowa	!	!	!	!	!	!LO:LB:g=original	!	!	!	!	!	!	!	!	!	!
1GG	.	.	.	8r	.	8g/L	.	.	.	.	.	.	.	.	.	.
.	.	.	.	8b/L	.	8dd\	.	.	.	.	.	.	.	.	.	.
.	.	.	.	8b/	.	8dd\	.	.	.	.	.	.	.	.	.	.
.	.	.	.	8b/J	.	8dd\J	.	.	.	.	.	.	.	.	.	.
.	.	.	.	8g/L	.	8b\L	.	.	.	.	.	.	.	.	.	.
.	.	.	.	16b/L	.	16dd\L	.	.	.	.	.	.	.	.	.	.
.	.	.	.	16a/JJ	.	16cc\JJ	.	.	.	.	.	.	.	.	.	.
.	.	.	.	8g/L	.	8b/L	.	.	.	.	.	.	.	.	.	.
!	!	!	!	!LO:TX:t=P:problem:kreska pseudotaktowa	!	!LO:TX:t=P:problem:kreska pseudotaktowa	!	!	!	!	!	!	!	!	!	!
.	.	.	.	8f/J	.	8a/J	.	.	.	.	.	.	.	.	.	.
=20-	=20-	=20-	=20-	=20-	=20-	=20-	=20-	=20-	=20-	=20-	=20-	=20-	=20-	=20-	=20-	=20-
!	!	!	!	!LO:TX:a:t=P:problem:mixedbeam	!	!LO:TX:a:t=P:problem:mixedbeam	!	!	!	!	!	!	!	!	!	!
8GG/L	.	.	.	8g/L	.	8b/L	.	.	.	.	.	.	.	.	.	.
8C/	.	.	.	8ee\	.	8gg\	.	.	.	.	.	.	.	.	.	.
8C/	.	.	.	8ee\	.	8gg\	.	.	.	.	.	.	.	.	.	.
8C/J	.	.	.	8ee\J	.	8gg\J	.	.	.	.	.	.	.	.	.	.
2C/	.	.	.	8ccny\L	.	8ee\L	.	.	.	.	.	.	.	.	.	.
.	.	.	.	16ee\L	.	16gg\L	.	.	.	.	.	.	.	.	.	.
.	.	.	.	16dd\JJ	.	16ff\JJ	.	.	.	.	.	.	.	.	.	.
.	.	.	.	16cc/LL	.	16ee\LL	.	.	.	.	.	.	.	.	.	.
.	.	.	.	16b/	.	16dd\	.	.	.	.	.	.	.	.	.	.
.	.	.	.	16a/	.	16cc\	.	.	.	.	.	.	.	.	.	.
!	!	!	!	!LO:SIC:v:t=custos f	!	!LO:TX:t=P:problem:kreska pseudotaktowa	!	!	!	!	!	!	!	!	!	!
!	!	!	!	!LO:TX:t=P:problem:kreska pseudotaktowa	!	!	!	!	!	!	!	!	!	!	!	!
.	.	.	.	16g/JJ	.	16b\JJ	.	.	.	.	.	.	.	.	.	.
!	!	!	!	!LO:TX:a:t=P:problem:mixedbeam	!	!LO:TX:a:t=P:problem:mixedbeam	!	!	!	!	!	!	!	!	!	!
!	!	!	!LO:TX:t=P:problem:kreska pseudotaktowa	!LO:LB:g=original	!	!	!	!	!	!	!	!	!	!	!	!
2D/	.	.	00r	8f/L	.	8a/L	.	.	.	.	.	.	.	.	.	.
.	.	.	.	16ff\L	.	16aa\L	.	.	.	.	.	.	.	.	.	.
.	.	.	.	16ee\JJ	.	16gg\JJ	.	.	.	.	.	.	.	.	.	.
.	.	.	.	16dd\LL	.	16ff\LL	.	.	.	.	.	.	.	.	.	.
.	.	.	.	16cc\	.	16ee\	.	.	.	.	.	.	.	.	.	.
.	.	.	.	16b\	.	16dd\	.	.	.	.	.	.	.	.	.	.
.	.	.	.	16a\JJ	.	16cc\JJ	.	.	.	.	.	.	.	.	.	.
!LO:TX:t=P:problem:kreska pseudotaktowa	!	!	!	!LO:TX:a:t=P:problem:mixedbeam	!	!LO:TX:a:t=P:problem:mixedbeam	!	!	!	!	!	!	!	!	!	!
2E\	.	.	.	8g/L	.	8b/L	.	.	.	.	.	.	.	.	.	.
.	.	.	.	16gg\L	.	16bb\L	.	.	.	.	.	.	.	.	.	.
.	.	.	.	16ff\JJ	.	16aa\JJ	.	.	.	.	.	.	.	.	.	.
.	.	.	.	16ee\LL	.	16gg\LL	.	.	.	.	.	.	.	.	.	.
.	.	.	.	16dd\	.	16ff\	.	.	.	.	.	.	.	.	.	.
.	.	.	.	16cc\	.	16ee\	.	.	.	.	.	.	.	.	.	.
!	!	!	!	!LO:TX:t=P:problem:kreska pseudotaktowa	!	!LO:TX:t=P:problem:kreska pseudotaktowa	!	!	!	!	!	!	!	!	!	!
.	.	.	.	16b\JJ	.	16dd\JJ	.	.	.	.	.	.	.	.	.	.
=21-	=21-	=21-	=21-	=21-	=21-	=21-	=21-	=21-	=21-	=21-	=21-	=21-	=21-	=21-	=21-	=21-
!	!	!	!	!LO:TX:a:t=P:problem:mixedbeam	!	!	!	!	!	!	!	!	!	!	!	!
2F\	.	.	.	8a/L	.	8cc\L	.	00r	.	.	00r	.	.	00r	.	.
.	.	.	.	16aa\L	.	16ccc\L	.	.	.	.	.	.	.	.	.	.
.	.	.	.	16gg\JJ	.	16bb\JJ	.	.	.	.	.	.	.	.	.	.
.	.	.	.	16ff\LL	.	16aa\LL	.	.	.	.	.	.	.	.	.	.
.	.	.	.	16ee\	.	16gg\	.	.	.	.	.	.	.	.	.	.
.	.	.	.	16dd\	.	16ff\	.	.	.	.	.	.	.	.	.	.
.	.	.	.	16cc\JJ	.	16ee\JJ	.	.	.	.	.	.	.	.	.	.
2G\	.	.	.	16b/LL	.	16dd\LL	.	.	.	.	.	.	.	.	.	.
.	.	.	.	16cc/	.	16ee\	.	.	.	.	.	.	.	.	.	.
.	.	.	.	16b/	.	16dd\	.	.	.	.	.	.	.	.	.	.
.	.	.	.	16a/JJ	.	16cc\JJ	.	.	.	.	.	.	.	.	.	.
.	.	.	.	16g/LL	.	16b/LL	.	.	.	.	.	.	.	.	.	.
.	.	.	.	16f/	.	16a/	.	.	.	.	.	.	.	.	.	.
.	.	.	.	16e/	.	16g/	.	.	.	.	.	.	.	.	.	.
!	!	!	!	!	!	!LO:SIC:v:t=custos g	!	!	!	!	!	!	!	!	!	!
!	!	!	!	!LO:TX:t=P:problem:kreska pseudotaktowa	!	!LO:TX:t=P:problem:kreska pseudotaktowa	!	!	!	!	!	!	!	!	!	!
.	.	.	.	16d/JJ	.	16f/JJ	.	.	.	.	.	.	.	.	.	.
!	!	!	!	!	!	!LO:LB:g=original	!	!	!	!	!	!	!	!	!	!
4C/	.	.	.	8e/L	.	8g/L	.	.	.	.	.	.	.	.	.	.
.	.	.	.	8e/	.	8g/	.	.	.	.	.	.	.	.	.	.
4BB/	.	.	.	8f/	.	8a/	.	.	.	.	.	.	.	.	.	.
.	.	.	.	8g/J	.	8b/J	.	.	.	.	.	.	.	.	.	.
4AA/	.	.	.	4a/	.	4cc\	.	.	.	.	.	.	.	.	.	.
8BB/L	6	.	.	4g/	.	4b/	.	.	.	.	.	.	.	.	.	.
!LO:TX:t=P:problem:kreska pseudotaktowa	!	!	!	!	!	!	!	!	!	!	!	!	!	!	!	!
8C/J	.	.	.	.	.	.	.	.	.	.	.	.	.	.	.	.
=22-	=22-	=22-	=22-	=22-	=22-	=22-	=22-	=22-	=22-	=22-	=22-	=22-	=22-	=22-	=22-	=22-
1D	4#r	.	.	2g/	.	1a	.	.	.	.	.	.	.	.	.	.
!	!	!	!	!LO:TX:t=P:problem:kreska pseudotaktowa	!	!	!	!	!	!	!	!	!	!	!	!
.	.	.	.	2f#X/	.	.	.	.	.	.	.	.	.	.	.	.
!	!	!	!LO:LB:g=original	!	!	!	!	!	!	!	!	!	!	!	!	!
2GG/	.	.	8r	4g/	.	4g/	.	.	.	.	.	.	.	.	.	.
.	.	.	8G\L	.	.	.	.	.	.	.	.	.	.	.	.	.
.	.	.	8G\	4r	.	4r	.	.	.	.	.	.	.	.	.	.
.	.	.	8G\J	.	.	.	.	.	.	.	.	.	.	.	.	.
!LO:TX:t=P:problem:kreska pseudotaktowa	!	!	!	!	!	!LO:TX:t=P:problem:kreska pseudotaktowa	!	!	!	!	!	!	!	!	!	!
2C/	.	.	8E\L	8r	.	2r	.	.	.	.	.	.	.	.	.	.
.	.	.	8G\	8gg\L	.	.	.	.	.	.	.	.	.	.	.	.
.	.	.	8E\	8gg\	.	.	.	.	.	.	.	.	.	.	.	.
!	!	!	!LO:TX:t=P:problem:kreska pseudotaktowa	!LO:TX:t=P:problem:kreska pseudotaktowa	!	!	!	!	!	!	!	!	!	!	!	!
.	.	.	8G\J	8gg\J	.	.	.	.	.	.	.	.	.	.	.	.
=23-	=23-	=23-	=23-	=23-	=23-	=23-	=23-	=23-	=23-	=23-	=23-	=23-	=23-	=23-	=23-	=23-
!	!	!	!LO:TX:a:t=P:problem:mixedbeam	!	!	!	!	!	!	!	!	!	!	!	!	!
2C/	.	.	8C/L	8ee\L	.	1r	.	00r	.	.	00r	.	.	00r	.	.
.	.	.	8c\J	8gg\J	.	.	.	.	.	.	.	.	.	.	.	.
.	.	.	8c\L	8ee\L	.	.	.	.	.	.	.	.	.	.	.	.
.	.	.	16B\L	16dd\L	.	.	.	.	.	.	.	.	.	.	.	.
.	.	.	16A\JJ	16cc\JJ	.	.	.	.	.	.	.	.	.	.	.	.
2G\	.	.	16G\LL	16b\LL	.	.	.	.	.	.	.	.	.	.	.	.
.	.	.	16c\	16ee\	.	.	.	.	.	.	.	.	.	.	.	.
.	.	.	16B\	16dd\	.	.	.	.	.	.	.	.	.	.	.	.
.	.	.	16A\JJ	16cc\JJ	.	.	.	.	.	.	.	.	.	.	.	.
.	.	.	16G\LL	16b/LL	.	.	.	.	.	.	.	.	.	.	.	.
.	.	.	16F\	16a/	.	.	.	.	.	.	.	.	.	.	.	.
.	.	.	16E\	16g/	.	.	.	.	.	.	.	.	.	.	.	.
!	!	!	!LO:TX:t=P:problem:kreska pseudotaktowa	!LO:TX:t=P:problem:kreska pseudotaktowa	!	!	!	!	!	!	!	!	!	!	!	!
.	.	.	16D\JJ	16fny/JJ	.	.	.	.	.	.	.	.	.	.	.	.
!	!	!	!	!LO:TX:a:t=P:problem:mixedbeam	!	!	!	!	!	!	!	!	!	!	!	!
!	!	!	!	!LO:LB:g=original	!	!	!	!	!	!	!	!	!	!	!	!
4C/	.	.	8C\L	8e/L	.	8r	.	.	.	.	.	.	.	.	.	.
.	.	.	16E\L	8ee\J	.	8gg\L	.	.	.	.	.	.	.	.	.	.
.	.	.	16D\JJ	.	.	.	.	.	.	.	.	.	.	.	.	.
4E\	6	.	16E\LL	4cc\	.	8gg\	.	.	.	.	.	.	.	.	.	.
.	.	.	16C\	.	.	.	.	.	.	.	.	.	.	.	.	.
.	.	.	16D\	.	.	8gg\J	.	.	.	.	.	.	.	.	.	.
.	.	.	16E\JJ	.	.	.	.	.	.	.	.	.	.	.	.	.
4F\	.	.	16F\LL	8r	.	4aa\	.	.	.	.	.	.	.	.	.	.
.	.	.	16G\	.	.	.	.	.	.	.	.	.	.	.	.	.
.	.	.	16F\	8a/L	.	.	.	.	.	.	.	.	.	.	.	.
.	.	.	16E\JJ	.	.	.	.	.	.	.	.	.	.	.	.	.
!LO:TX:t=P:problem:kreska pseudotaktowa	!	!	!	!	!	!LO:TX:t=P:problem:kreska pseudotaktowa	!	!	!	!	!	!	!	!	!	!
4D/	.	.	16D/LL	8a/	.	4r	.	.	.	.	.	.	.	.	.	.
.	.	.	16C/	.	.	.	.	.	.	.	.	.	.	.	.	.
!	!	!	!	!LO:TX:t=P:problem:kreska pseudotaktowa	!	!	!	!	!	!	!	!	!	!	!	!
.	.	.	16BB/	8a/J	.	.	.	.	.	.	.	.	.	.	.	.
!	!	!	!LO:TX:t=P:problem:kreska pseudotaktowa	!	!	!	!	!	!	!	!	!	!	!	!	!
.	.	.	16AA/JJ	.	.	.	.	.	.	.	.	.	.	.	.	.
=24-	=24-	=24-	=24-	=24-	=24-	=24-	=24-	=24-	=24-	=24-	=24-	=24-	=24-	=24-	=24-	=24-
!	!	!	!LO:TX:a:t=P:problem:mixedbeam	!	!	!	!	!	!	!	!	!	!	!	!	!
2GG/	.	.	8GG/L	8b/L	.	8r	.	.	.	.	.	.	.	.	.	.
.	.	.	16G\L	16b/L	.	8dd\L	.	.	.	.	.	.	.	.	.	.
.	.	.	16A\JJ	16cc/JJ	.	.	.	.	.	.	.	.	.	.	.	.
.	.	.	16G\LL	16b/LL	.	8dd\	.	.	.	.	.	.	.	.	.	.
.	.	.	16F\	16a/	.	.	.	.	.	.	.	.	.	.	.	.
.	.	.	16E\	16g/	.	8dd\J	.	.	.	.	.	.	.	.	.	.
.	.	.	16D\JJ	16f/JJ	.	.	.	.	.	.	.	.	.	.	.	.
!LO:SIC:v:t=custos AA	!	!	!	!LO:TX:a:t=P:problem:mixedbeam	!	!	!	!	!	!	!	!	!	!	!	!
2C/	.	.	8C/L	8e/L	.	4ee\	.	.	.	.	.	.	.	.	.	.
.	.	.	16C/L	16ee\L	.	.	.	.	.	.	.	.	.	.	.	.
.	.	.	16D/JJ	16ff\JJ	.	.	.	.	.	.	.	.	.	.	.	.
!	!	!	!	!	!	!LO:TX:t=P:problem:kreska pseudotaktowa	!	!	!	!	!	!	!	!	!	!
.	.	.	16C/LL	16ee\LL	.	4r	.	.	.	.	.	.	.	.	.	.
.	.	.	16BB/	16dd\	.	.	.	.	.	.	.	.	.	.	.	.
.	.	.	16AA/	16cc\	.	.	.	.	.	.	.	.	.	.	.	.
!	!	!	!LO:SIC:v:t=custos AA	!LO:TX:t=P:problem:kreska pseudotaktowa	!	!	!	!	!	!	!	!	!	!	!	!
!	!	!	!LO:TX:t=P:problem:kreska pseudotaktowa	!	!	!	!	!	!	!	!	!	!	!	!	!
.	.	.	16GG/JJ	16b\JJ	.	.	.	.	.	.	.	.	.	.	.	.
!	!	!	!LO:TX:a:t=P:problem:mixedbeam	!	!	!	!	!	!	!	!	!	!	!	!	!
!LO:LB:g=original	!	!	!LO:LB:g=original	!	!	!	!	!	!	!	!	!	!	!	!	!
2AA/	.	.	8AA/L	8cc\L	.	8r	.	.	.	.	.	.	.	.	.	.
.	.	.	16A\L	16cc\L	.	8ee\L	.	.	.	.	.	.	.	.	.	.
.	.	.	16B\JJ	16dd\JJ	.	.	.	.	.	.	.	.	.	.	.	.
.	.	.	16A\LL	16cc/LL	.	8ee\	.	.	.	.	.	.	.	.	.	.
.	.	.	16G\	16b/	.	.	.	.	.	.	.	.	.	.	.	.
.	.	.	16F\	16a/	.	8ee\J	.	.	.	.	.	.	.	.	.	.
.	.	.	16E\JJ	16g/JJ	.	.	.	.	.	.	.	.	.	.	.	.
!LO:TX:t=P:problem:kreska pseudotaktowa	!	!	!	!LO:TX:a:t=P:problem:mixedbeam	!	!	!	!	!	!	!	!	!	!	!	!
2D/	.	.	8D\L	8f/L	.	4dd\	.	.	.	.	.	.	.	.	.	.
.	.	.	16D\L	16ff\L	.	.	.	.	.	.	.	.	.	.	.	.
.	.	.	16E\JJ	16gg\JJ	.	.	.	.	.	.	.	.	.	.	.	.
.	.	.	16D/LL	16ff\LL	.	8ff\L	.	.	.	.	.	.	.	.	.	.
.	.	.	16C/	16ee\	.	.	.	.	.	.	.	.	.	.	.	.
!	!	!	!	!	!	!LO:TX:t=P:problem:kreska pseudotaktowa	!	!	!	!	!	!	!	!	!	!
.	.	.	16BB/	16dd\	.	8ff\J	.	.	.	.	.	.	.	.	.	.
!	!	!	!LO:TX:t=P:problem:kreska pseudotaktowa	!LO:TX:t=P:problem:kreska pseudotaktowa	!	!	!	!	!	!	!	!	!	!	!	!
.	.	.	16AA/JJ	16cc\JJ	.	.	.	.	.	.	.	.	.	.	.	.
=25-	=25-	=25-	=25-	=25-	=25-	=25-	=25-	=25-	=25-	=25-	=25-	=25-	=25-	=25-	=25-	=25-
!	!	!	!LO:TX:a:t=P:problem:mixedbeam	!	!	!	!	!LO:TX:t=P:problem:kreska pseudotaktowa	!	!	!LO:TX:t=P:problem:kreska pseudotaktowa	!	!LO:TX:t=P:problem:kreska pseudotaktowa	!	!	!
2G\	.	.	8GG/L	8dd\L	.	2gg\	.	00r	.	.	00r	.	.	00r	.	.
.	.	.	8G\J	16b\L	.	.	.	.	.	.	.	.	.	.	.	.
.	.	.	.	16cc\JJ	.	.	.	.	.	.	.	.	.	.	.	.
.	.	.	16G\LL	16b/LL	.	.	.	.	.	.	.	.	.	.	.	.
.	.	.	16A\	16a/	.	.	.	.	.	.	.	.	.	.	.	.
.	.	.	16G\	16g/	.	.	.	.	.	.	.	.	.	.	.	.
.	.	.	16F\JJ	16f/JJ	.	.	.	.	.	.	.	.	.	.	.	.
2E\	.	.	16E\LL	16g/LL	.	2r	.	.	.	.	.	.	.	.	.	.
.	.	.	16F\	16a/	.	.	.	.	.	.	.	.	.	.	.	.
.	.	.	16G\	16b/	.	.	.	.	.	.	.	.	.	.	.	.
.	.	.	16F\JJ	16a/JJ	.	.	.	.	.	.	.	.	.	.	.	.
.	.	.	16E/LL	16g/LL	.	.	.	.	.	.	.	.	.	.	.	.
.	.	.	16D/	16f/	.	.	.	.	.	.	.	.	.	.	.	.
.	.	.	16C/	16e/	.	.	.	.	.	.	.	.	.	.	.	.
!	!	!	!LO:TX:t=P:problem:kreska pseudotaktowa	!LO:TX:t=P:problem:kreska pseudotaktowa	!	!	!	!	!	!	!	!	!	!	!	!
.	.	.	16BB/JJ	16d/JJ	.	.	.	.	.	.	.	.	.	.	.	.
4AA/	.	.	4AA/	2e/	.	2r	.	.	.	.	.	.	.	.	.	.
4BB/	.	.	4BB/	.	.	.	.	.	.	.	.	.	.	.	.	.
4C/	.	.	4C/	8r	.	8r	.	.	.	.	.	.	.	.	.	.
.	.	.	.	8ee\L	.	8cc/L	.	.	.	.	.	.	.	.	.	.
!LO:TX:t=P:problem:kreska pseudotaktowa	!	!	!	!	!	!	!	!	!	!	!	!	!	!	!	!
4D/	.	.	4D/	8dd\	.	8b/	.	.	.	.	.	.	.	.	.	.
!	!	!	!	!	!	!LO:TX:t=P:problem:kreska pseudotaktowa	!	!	!	!	!	!	!	!	!	!
.	.	.	.	8cc\J	.	8a/J	.	.	.	.	.	.	.	.	.	.
=26-	=26-	=26-	=26-	=26-	=26-	=26-	=26-	=26-	=26-	=26-	=26-	=26-	=26-	=26-	=26-	=26-
1E	#:4#r	.	1E	1b	.	4g#X/	.	.	.	.	.	.	.	.	.	.
.	.	.	.	.	.	2a/	.	.	.	.	.	.	.	.	.	.
!	!	!	!	!	!	!LO:TX:b:t=P:problem:# below	!	!	!	!	!	!	!	!	!	!
.	.	.	.	.	.	4g#X/	.	.	.	.	.	.	.	.	.	.
!	!	!	!	!LO:TX:b:t=Verte\nCito	!	!LO:TX:t=P:problem:kreska pseudotaktowa	!	!	!	!	!	!	!	!	!	!
!	!	!	!LO:TX:t=P:problem:kreska pseudotaktowa	!LO:TX:t=P:problem:kreska pseudotaktowa	!	!	!	!	!	!	!	!	!	!	!	!
1AA;>	#	.	1AA	1cc#X	.	1a	.	.	.	.	.	.	.	.	.	.
=27||-	=27||-	=27||-	=27||-	=27||-	=27||-	=27||-	=27||-	=27||-	=27||-	=27||-	=27||-	=27||-	=27||-	=27||-	=27||-	=27||-
!LO:TX:b:t=O Qúam dúlcis	!	!LO:DY:a:t=Piano	!	!LO:TX:b:t=O Qúam dúlcis	!LO:DY:a:t=Piano	!LO:TX:b:t=O Qúam dúlcis	!LO:DY:b:t=Piano	!	!	!LO:DY:a:t=Piano	!	!	!LO:DY:a:t=Piano	!	!	!LO:DY:a:t=Piano
!	!	!	!LO:TX:b:t=O Qúam dúlcis	!LO:PB:g=original	!	!LO:LB:g=original	!	!	!	!	!	!	!	!	!	!
!	!	!	!LO:TX:t=P<..>n	!	!	!	!	!	!	!	!	!	!	!	!	!
1AA	#	p	1A	1ee	p	1aa	p	1c#X	Ó	p	1e	Ó	p	1a	Ó.	p
!LO:TX:t=P:problem:kreska pseudotaktowa	!	!	!LO:TX:t=P:problem:kreska pseudotaktowa	!	!	!LO:TX:t=P:problem:kreska pseudotaktowa	!	!	!	!	!	!	!	!	!	!
1AA	#	.	1AA	1cc#X	.	1ee	.	1r	.	.	1r	.	.	1r	.	.
=28-	=28-	=28-	=28-	=28-	=28-	=28-	=28-	=28-	=28-	=28-	=28-	=28-	=28-	=28-	=28-	=28-
1GG#X	6	.	1GG#X	2.b/	.	2.ee\	.	2.B\	O	.	2.e\	O.	.	2.ee\	O	.
!	!	!	!	!LO:TX:t=P:problem:kreska pseudotaktowa	!	!	!	!LO:TX:t=P:problem:kreska pseudotaktowa	!	!	!LO:TX:t=P:problem:kreska pseudotaktowa	!	!	!LO:TX:t=P:problem:kreska pseudotaktowa	!	!
.	.	.	.	4b/	.	4ee\	.	4B\	qúam	.	4e\	qúam	.	4dd\	Qúam	.
!	!	!	!LO:SIC:v:t=custos C	!	!	!	!	!	!	!	!	!	!	!	!	!
!LO:TX:t=P:problem:kreska pseudotaktowa	!	!	!LO:TX:t=P:problem:kreska pseudotaktowa	!	!	!	!	!	!	!	!	!	!	!	!	!
1AA	#	.	1AA	2a/	.	2ee\	.	2A/	dúl-	.	2e\	dúl-	.	2cc#X\	dúl-	.
!	!	!	!	!	!	!LO:TX:t=P:problem:kreska pseudotaktowa	!	!	!	!	!	!	!	!	!	!
.	.	.	.	2aa\	.	2ee\	.	2A/	-cis	.	2e\	-cis	.	2cc#\	-cis	.
=29-	=29-	=29-	=29-	=29-	=29-	=29-	=29-	=29-	=29-	=29-	=29-	=29-	=29-	=29-	=29-	=29-
!	!	!	!LO:LB:g=original	!	!	!	!	!	!	!	!	!	!	!	!	!
2.C#X/	6	.	2.C#X/	1aa	.	2.ee\	.	2.A/	qúam	.	2.e\	qúam	.	2.a\	qúam	.
!	!	!	!	!	!	!LO:SIC:v:s=4ff#\	!	!	!	!	!LO:TX:t=P:problem:kreska pseudotaktowa	!	!	!	!	!
!	!	!	!	!	!	!	!	!	!	!	!LO:SIC:v:s=4f#\	!	!	!	!	!
4D/	#	.	4D/	.	.	4ff\	.	4F#X/	ſú-	.	4f\	ſú-	.	4a\	ſú-	.
!LO:TX:t=P:problem:kreska pseudotaktowa	!	!	!	!	!	!	!	!	!	!	!	!	!	!	!	!
1E	4#r	.	1E	2bb\	.	2ee\	.	2B\	-a-	.	2e\	-a-	.	2a\	-a-	.
!	!	!	!	!LO:TX:t=P:problem:kreska pseudotaktowa	!	!LO:TX:t=P:problem:kreska pseudotaktowa	!	!LO:TX:t=P:problem:kreska pseudotaktowa	!	!	!	!	!	!LO:TX:t=P:problem:kreska pseudotaktowa	!	!
.	.	.	.	2bb\	.	2ee\	.	2B\	-vis	.	2e\	-vis	.	2g#X/	-vis	.
=30-	=30-	=30-	=30-	=30-	=30-	=30-	=30-	=30-	=30-	=30-	=30-	=30-	=30-	=30-	=30-	=30-
!	!	!	!LO:TX:t=P:problem:kreska pseudotaktowa	!	!	!	!	!	!	!	!	!	!	!	!	!
2.C#X/	6	.	0r	0r	.	0r	.	4r	.	.	4r	.	.	4r	.	.
.	.	.	.	.	.	.	.	2A/	Quam	.	2e\	Qúam	.	2a\	Qúam	.
!	!	!	!	!	!	!	!	!	!	!	!LO:SIC:v:s=4f#\	!	!	!	!	!
4D/	#	.	.	.	.	.	.	4F#X/	ſú-	.	4f\	ſú-	.	4a\	ſú-	.
2E\	4	.	.	.	.	.	.	2B\	-a-	.	2e\	-a-	.	2a\	-a-	.
!	!	!	!	!	!	!	!	!LO:SIC:v:t=custos G	!	!	!LO:SIC:v:t=custos e	!	!	!LO:SIC:v:t=custos b	!	!
!LO:TX:t=P:problem:kreska pseudotaktowa	!	!	!	!	!	!	!	!LO:TX:t=P:problem:kreska pseudotaktowa	!	!	!LO:TX:t=P:problem:kreska pseudotaktowa	!	!	!LO:TX:t=P:problem:kreska pseudotaktowa	!	!
2E\	#	.	.	.	.	.	.	2B\	-vis	.	2e\	-vis	.	2g#X/	-vis	.
=31-	=31-	=31-	=31-	=31-	=31-	=31-	=31-	=31-	=31-	=31-	=31-	=31-	=31-	=31-	=31-	=31-
!	!	!	!	!	!	!	!	!LO:LB:g=original	!	!	!LO:LB:g=original	!	!	!LO:LB:g=original	!	!
2r	.	.	2r	2r	.	2r	.	2r	.	.	2r	.	.	2r	.	.
2E\	.	.	2E\	2gg\	.	2ee\	.	2G/	Sal-	.	2e\	Sal-	.	2b\	Sal-	.
!LO:SIC:v:t=custos E	!	!	!	!	!	!	!	!	!	!	!	!	!	!	!	!
!LO:TX:t=P:problem:kreska pseudotaktowa	!	!	!	!	!	!	!	!	!	!	!	!	!	!	!	!
1D	.	.	2D/	2ff\	.	4ff\	.	2A/	-va-	.	2f\	-va-	.	2.dd\	-va-	.
.	.	.	.	.	.	4ee\	.	.	.	.	.	.	.	.	.	.
!	!	!	!LO:TX:t=P:problem:kreska pseudotaktowa	!	!	!	!	!LO:TX:t=P:problem:kreska pseudotaktowa	!	!	!	!	!	!	!	!
.	.	.	2D/	2ff\	.	4dd\	.	2A/	-tor	.	2f\	-tor	.	.	.	.
!	!	!	!	!	!	!LO:TX:t=P:problem:kreska pseudotaktowa	!	!	!	!	!	!	!	!	!	!
.	.	.	.	.	.	4cc\	.	.	.	.	.	.	.	4ccny\	-tor	.
=32-	=32-	=32-	=32-	=32-	=32-	=32-	=32-	=32-	=32-	=32-	=32-	=32-	=32-	=32-	=32-	=32-
!LO:LB:g=original	!	!	!	!	!	!	!	!	!	!	!	!	!	!	!	!
1E	#:4#r	.	1E	(1ee	.	1b	.	(4G#X/	mún-	.	1e	mún-	.	1b	mún-	.
.	.	.	.	.	.	.	.	2A/	.	.	.	.	.	.	.	.
.	.	.	.	.	.	.	.	4G#X/)	.	.	.	.	.	.	.	.
!LO:TX:t=P:problem:kreska pseudotaktowa	!	!	!LO:TX:t=P:problem:kreska pseudotaktowa	!LO:TX:t=P:problem:kreska pseudotaktowa	!	!LO:TX:t=P:problem:kreska pseudotaktowa	!	!LO:TX:t=P:problem:kreska pseudotaktowa	!	!	!LO:TX:t=P:problem:kreska pseudotaktowa	!	!	!LO:TX:t=P:problem:kreska pseudotaktowa	!	!
1AA	#	.	1AA	1ee)	.	1cc#X;>	.	1A	-di	.	1e	-di,	.	1a	-dj,	.
=33-	=33-	=33-	=33-	=33-	=33-	=33-	=33-	=33-	=33-	=33-	=33-	=33-	=33-	=33-	=33-	=33-
*M3/1	*	*	*M3/1	*M3/1	*	*M3/1	*	*M3/1	*	*	*M3/1	*	*	*M3/1	*	*
!	!	!	!LO:TX:b:t=3	!	!	!LO:TX:b:t=4	!	!	!	!	!	!	!	!	!	!
1A	.	.	1%6r	1%6r	.	1%6r	.	1A	in	.	1e	in	.	1cc	In	.
1A	.	.	.	.	.	.	.	1A	qúem	.	1e	qúem	.	1.cc	qúem	.
!LO:TX:t=P:problem:kreska pseudotaktowa	!	!	!	!	!	!	!	!LO:TX:t=P:problem:kreska pseudotaktowa	!	!	!LO:TX:t=P:problem:kreska pseudotaktowa	!	!	!	!	!
1A	.	.	.	.	.	.	.	1A	de-	.	1e	de-	.	.	.	.
!	!	!	!	!	!	!	!	!	!	!	!	!	!	!LO:TX:t=P:problem:kreska pseudotaktowa	!	!
.	.	.	.	.	.	.	.	.	.	.	.	.	.	2b\	de-	.
=34-	=34-	=34-	=34-	=34-	=34-	=34-	=34-	=34-	=34-	=34-	=34-	=34-	=34-	=34-	=34-	=34-
1.D	.	.	.	.	.	.	.	1.D	-ſi-	.	1.f#X	-ſi-	.	1.a	-si-	.
2D/	.	.	.	.	.	.	.	2D/	-de-	.	2e\	-de-	.	2a\	-de-	.
!LO:TX:t=P:problem:kreska pseudotaktowa	!	!	!	!	!	!	!	!	!	!	!	!	!	!	!	!
1G	.	.	.	.	.	.	.	1Gny	-rant	.	1d	-rant	.	1a	-rant	.
=35-	=35-	=35-	=35-	=35-	=35-	=35-	=35-	=35-	=35-	=35-	=35-	=35-	=35-	=35-	=35-	=35-
!	!	!	!	!	!	!LO:TX:a:t=Verto	!	!	!	!	!	!	!	!	!	!
1.Cny	.	.	1%3r	1%3r	.	1%6r	.	1.C	An-	.	1.e	An-	.	1.cc	An-	.
2D/	.	.	.	.	.	.	.	2D/	-ge-	.	2fny\	-ge-	.	2cc\	-ge-	.
!	!	!	!	!	!	!	!	!LO:TX:t=P:problem:kreska pseudotaktowa	!	!	!LO:TX:t=P:problem:kreska pseudotaktowa	!	!	!LO:TX:t=P:problem:kreska pseudotaktowa	!	!
1E	6	.	.	.	.	.	.	1E	-li	.	1g	-li	.	1cc	-li	.
=36-	=36-	=36-	=36-	=36-	=36-	=36-	=36-	=36-	=36-	=36-	=36-	=36-	=36-	=36-	=36-	=36-
!	!	!	!	!	!	!	!	!LO:N:vis=2	!	!	!	!	!	!	!	!
!	!	!	!	!	!	!	!	!LO:TX:t=P:problem:korekta	!	!	!	!	!	!	!	!
1F	.	.	1r	1r	.	.	.	1Fny	pros-	.	(2f\	pro-	.	1cc	proſ-	.
.	.	.	.	.	.	.	.	.	.	.	2e\)	.	.	.	.	.
1.G	.	.	1G	1gg	.	.	.	1.G	-pi-	.	1.d	-pi-	.	1.cc	-pi-	.
.	.	.	1G	1gg	.	.	.	.	.	.	.	.	.	.	.	.
!LO:TX:t=P:problem:kreska pseudotaktowa	!	!	!	!	!	!	!	!	!	!	!	!	!	!	!	!
2G\	.	.	.	.	.	.	.	2G/	-ce-	.	2c/	-ce-	.	2b\	-ce-	.
=37-	=37-	=37-	=37-	=37-	=37-	=37-	=37-	=37-	=37-	=37-	=37-	=37-	=37-	=37-	=37-	=37-
!	!	!	!	!	!	!LO:PB:g=original	!	!	!	!	!	!	!	!	!	!
0C	.	.	0Cny	1ee	.	1gg	.	1C	-re	.	1c	-re	.	1cc	-re	.
.	.	.	.	2ee\	.	1gg	.	1r	.	.	1r	.	.	1r	.	.
.	.	.	.	2dd\	.	.	.	.	.	.	.	.	.	.	.	.
!	!	!	!LO:TX:t=P:problem:kreska pseudotaktowa	!	!	!	!	!	!	!	!	!	!	!	!	!
1C	.	.	1C	2ccny\	.	2ee\	.	1r	.	.	1r	.	.	1r	.	.
!	!	!	!	!LO:TX:t=P:problem:kreska pseudotaktowa	!	!LO:TX:t=P:problem:kreska pseudotaktowa	!	!	!	!	!	!	!	!	!	!
.	.	.	.	2b/	.	2dd\	.	.	.	.	.	.	.	.	.	.
=38-	=38-	=38-	=38-	=38-	=38-	=38-	=38-	=38-	=38-	=38-	=38-	=38-	=38-	=38-	=38-	=38-
!	!	!	!	!	!	!	!	!LO:TX:a:t=3	!	!	!LO:TX:a:t=3	!	!	!LO:TX:a:t=3	!	!
1C	.	.	1C	2a/	.	2ccny\	.	1%6r	.	.	1%6r	.	.	1%6r	.	.
.	.	.	.	2g/	.	2b/	.	.	.	.	.	.	.	.	.	.
1.D	.	.	1.D	1f	.	1a	.	.	.	.	.	.	.	.	.	.
!	!	!	!	!LO:SIC:v:t=custos ff	!	!LO:TX:t=P:problem:kreska pseudotaktowa	!	!	!	!	!	!	!	!	!	!
!	!	!	!	!LO:TX:t=P:problem:kreska pseudotaktowa	!	!	!	!	!	!	!	!	!	!	!	!
.	.	.	.	[>1ff	.	[>1aa	.	.	.	.	.	.	.	.	.	.
!LO:TX:t=P:problem:kreska pseudotaktowa	!	!	!	!	!	!	!	!	!	!	!	!	!	!	!	!
2E\	.	.	2E\	.	.	.	.	.	.	.	.	.	.	.	.	.
=39-	=39-	=39-	=39-	=39-	=39-	=39-	=39-	=39-	=39-	=39-	=39-	=39-	=39-	=39-	=39-	=39-
!	!	!	!	!LO:LB:g=original	!	!	!	!	!	!	!	!	!	!	!	!
0F	.	.	0F	2ff\]	.	2aa\]	.	.	.	.	.	.	.	.	.	.
.	.	.	.	2ee\	.	2gg\	.	.	.	.	.	.	.	.	.	.
.	.	.	.	2dd\	.	2ff\	.	.	.	.	.	.	.	.	.	.
.	.	.	.	2cc\	.	2ee\	.	.	.	.	.	.	.	.	.	.
!	!	!	!LO:TX:t=P:problem:kreska pseudotaktowa	!	!	!LO:TX:t=P:problem:kreska pseudotaktowa	!	!	!	!	!	!	!	!	!	!
1G	.	.	1F	2b/	.	1dd	.	.	.	.	.	.	.	.	.	.
!	!	!	!	!LO:TX:t=P:problem:kreska pseudotaktowa	!	!	!	!	!	!	!	!	!	!	!	!
.	.	.	.	2g/	.	.	.	.	.	.	.	.	.	.	.	.
=40-	=40-	=40-	=40-	=40-	=40-	=40-	=40-	=40-	=40-	=40-	=40-	=40-	=40-	=40-	=40-	=40-
!	!	!	!	!	!	!	!	!	!	!	!LO:SIC:v:t=custos f	!	!	!LO:SIC:v:t=custos a	!	!
!	!	!	!LO:LB:g=original	!	!	!	!	!LO:TX:t=P:problem:kreska pseudotaktowa	!	!	!LO:TX:t=P:problem:kreska pseudotaktowa	!	!	!LO:TX:t=P:problem:kreska pseudotaktowa	!	!
1G	.	.	1G	2gg\	.	1dd	.	1%3r	.	.	1%3r	.	.	1%3r	.	.
.	.	.	.	2ff\	.	.	.	.	.	.	.	.	.	.	.	.
1A	#	.	1A	1.ee	.	1.dd	.	.	.	.	.	.	.	.	.	.
!LO:SIC:v:t=custos d	!	!	!LO:TX:t=P:problem:kreska pseudotaktowa	!	!	!	!	!	!	!	!	!	!	!	!	!
!LO:TX:t=P:problem:kreska pseudotaktowa	!	!	!	!	!	!	!	!	!	!	!	!	!	!	!	!
1AA	.	.	1AA	.	.	.	.	.	.	.	.	.	.	.	.	.
.	.	.	.	2ee\	.	2cc#X\	.	.	.	.	.	.	.	.	.	.
*clefC4	*	*	*	*	*	*	*	*	*	*	*	*	*	*	*	*
=41-	=41-	=41-	=41-	=41-	=41-	=41-	=41-	=41-	=41-	=41-	=41-	=41-	=41-	=41-	=41-	=41-
!LO:LB:g=original	!	!	!	!	!	!	!	!LO:LB:g=original	!	!	!LO:LB:g=original	!	!	!LO:LB:g=original	!	!
1d	.	.	1D	1dd	.	1dd	.	1d	in	.	1f#X	in	.	1a	in	.
1d	#	.	1r	1r	.	1r	.	1d	qúem	.	1f#	qúem	.	1a	qúem	.
!	!	!	!	!	!	!	!	!	!	!	!LO:TX:t=P:problem:kreska pseudotaktowa	!	!	!LO:TX:t=P:problem:kreska pseudotaktowa	!	!
1d	.	.	1r	1r	.	1r	.	1d	de-	.	1f#	de-	.	1a	de-	.
=42-	=42-	=42-	=42-	=42-	=42-	=42-	=42-	=42-	=42-	=42-	=42-	=42-	=42-	=42-	=42-	=42-
!	!	!	!LO:TX:b:t=3	!LO:TX:b:t=3	!	!LO:TX:a:t=4	!	!	!	!	!	!	!	!	!	!
1.d	.	.	1%6r	1%6r	.	1%6r	.	1.d	-ſi-	.	1.f#	-ſi-	.	1.a	-si-	.
2d\	#	.	.	.	.	.	.	2d\	-de-	.	2e\	-se-	.	2gny/	-de-	.
!LO:TX:t=P:problem:kreska pseudotaktowa	!	!	!	!	!	!	!	!LO:TX:t=P:problem:kreska pseudotaktowa	!	!	!	!	!	!	!	!
1d	.	.	.	.	.	.	.	1d	-rant	.	(2d\	-rant	.	1f	-rant	.
.	.	.	.	.	.	.	.	.	.	.	2c\)	.	.	.	.	.
=43-	=43-	=43-	=43-	=43-	=43-	=43-	=43-	=43-	=43-	=43-	=43-	=43-	=43-	=43-	=43-	=43-
1.G	.	.	.	.	.	.	.	1.G	An-	.	1.B	An-	.	1.g	An-	.
2A/	.	.	.	.	.	.	.	2A/	-ge-	.	2c/	-ge-	.	2g/	-ge-	.
!LO:TX:t=P:problem:kreska pseudotaktowa	!	!	!	!	!	!	!	!	!	!	!LO:TX:t=P:problem:kreska pseudotaktowa	!	!	!LO:TX:t=P:problem:kreska pseudotaktowa	!	!
1B	.	.	.	.	.	.	.	1B	-li	.	1d	-li	.	1f#X	-li	.
=44-	=44-	=44-	=44-	=44-	=44-	=44-	=44-	=44-	=44-	=44-	=44-	=44-	=44-	=44-	=44-	=44-
!	!	!	!LO:TX:b:t=Verte	!LO:TX:t=P:problem:kreska pseudotaktowa	!	!LO:TX:t=P:problem:kreska pseudotaktowa	!	!	!	!	!	!	!	!	!	!
1G	.	.	1%3r	1%3r	.	1%6r	.	1G	pros-	.	1d	pros-	.	1fny	proſ-	.
1.A	.	.	.	.	.	.	.	1.A	-pi-	.	1.d	-pi-	.	1.e	-pi-	.
2A/	.	.	.	.	.	.	.	2A/	-ce-	.	2c#X/	-ce-	.	2e/	-ce-	.
*clefF4	*	*	*	*	*	*	*	*	*	*	*	*	*	*	*	*
=45-	=45-	=45-	=45-	=45-	=45-	=45-	=45-	=45-	=45-	=45-	=45-	=45-	=45-	=45-	=45-	=45-
!	!	!	!LO:PB:g=original	!	!	!	!	!	!	!	!	!	!	!	!	!
1D	.	.	1D	1dd	.	.	.	1D	-re	.	1d	-re	.	1f#X	-re	.
1.F#X	65	.	1.F#X	1.dd	.	.	.	1r	.	.	1r	.	.	1r	.	.
.	.	.	.	.	.	.	.	1r	.	.	1r	.	.	1r	.	.
!	!	!	!LO:TX:t=P:problem:kreska pseudotaktowa	!	!	!	!	!	!	!	!	!	!	!	!	!
2F#\	.	.	2F#\	2cc\	.	.	.	.	.	.	.	.	.	.	.	.
=46-	=46-	=46-	=46-	=46-	=46-	=46-	=46-	=46-	=46-	=46-	=46-	=46-	=46-	=46-	=46-	=46-
!	!	!	!	!	!	!	!	!LO:TX:b:t=7	!	!	!LO:TX:b:t=7	!	!	!LO:TX:a:t=7	!	!
1G	.	.	1G	0b	.	1gg	.	1%6r	.	.	1%6r	.	.	1%6r	.	.
!LO:TX:t=P:problem:kreska pseudotaktowa	!	!	!	!	!	!	!	!	!	!	!	!	!	!	!	!
0GGny	.	.	0GGny	.	.	1.gg	.	.	.	.	.	.	.	.	.	.
!	!	!	!	!LO:TX:t=P:problem:kreska pseudotaktowa	!	!	!	!	!	!	!	!	!	!	!	!
.	.	.	.	1b	.	.	.	.	.	.	.	.	.	.	.	.
!	!	!	!	!	!	!LO:TX:t=P:problem:kreska pseudotaktowa	!	!	!	!	!	!	!	!	!	!
.	.	.	.	.	.	2ff\	.	.	.	.	.	.	.	.	.	.
=47-	=47-	=47-	=47-	=47-	=47-	=47-	=47-	=47-	=47-	=47-	=47-	=47-	=47-	=47-	=47-	=47-
0.C	.	.	0C	1cc	.	0ee	.	.	.	.	.	.	.	.	.	.
.	.	.	.	1.cc	.	.	.	.	.	.	.	.	.	.	.	.
!	!	!	!LO:TX:t=P:problem:kreska pseudotaktowa	!	!	!	!	!	!	!	!	!	!	!	!	!
.	.	.	1C	.	.	2ee\	.	.	.	.	.	.	.	.	.	.
.	.	.	.	2b/	.	2dd\	.	.	.	.	.	.	.	.	.	.
=48-	=48-	=48-	=48-	=48-	=48-	=48-	=48-	=48-	=48-	=48-	=48-	=48-	=48-	=48-	=48-	=48-
0Fny	.	.	0Fny	1.a	.	1.ccny	.	1%6r	.	.	1%6r	.	.	1%6r	.	.
.	.	.	.	2a/	.	2cc\	.	.	.	.	.	.	.	.	.	.
!LO:TX:t=P:problem:kreska pseudotaktowa	!	!	!	!	!	!	!	!	!	!	!	!	!	!	!	!
1E	.	.	1E	2b/	.	2dd\	.	.	.	.	.	.	.	.	.	.
!	!	!	!	!	!	!LO:SIC:v:t=custos ff	!	!	!	!	!	!	!	!	!	!
!	!	!	!	!LO:TX:t=P:problem:kreska pseudotaktowa	!	!LO:TX:t=P:problem:kreska pseudotaktowa	!	!	!	!	!	!	!	!	!	!
.	.	.	.	2cc\	.	2ee\	.	.	.	.	.	.	.	.	.	.
=49-	=49-	=49-	=49-	=49-	=49-	=49-	=49-	=49-	=49-	=49-	=49-	=49-	=49-	=49-	=49-	=49-
!	!	!	!	!	!	!LO:LB:g=original	!	!	!	!	!	!	!	!	!	!
0.D	.	.	0D	2dd\	.	2ff\	.	.	.	.	.	.	.	.	.	.
.	.	.	.	2cc\	.	2ee\	.	.	.	.	.	.	.	.	.	.
.	.	.	.	2dd\	.	2ff\	.	.	.	.	.	.	.	.	.	.
.	.	.	.	2ee\	.	2gg\	.	.	.	.	.	.	.	.	.	.
!	!	!	!	!LO:SIC:v:t=custos ee	!	!LO:TX:t=P:problem:kreska pseudotaktowa	!	!	!	!	!	!	!	!	!	!
!	!	!	!LO:TX:t=P:problem:kreska pseudotaktowa	!LO:TX:t=P:problem:kreska pseudotaktowa	!	!	!	!	!	!	!	!	!	!	!	!
.	.	.	1D	1dd	.	1ff	.	.	.	.	.	.	.	.	.	.
=50-	=50-	=50-	=50-	=50-	=50-	=50-	=50-	=50-	=50-	=50-	=50-	=50-	=50-	=50-	=50-	=50-
!LO:SIC:v:t=custos F	!	!	!	!LO:LB:g=original	!	!	!	!	!	!	!	!	!	!	!	!
!LO:TX:t=P:problem:kreska pseudotaktowa	!	!	!	!	!	!	!	!	!	!	!	!	!	!	!	!
0.C	.	.	0C	2ee\	.	2gg\	.	1%6r	.	.	1%6r	.	.	1%6r	.	.
.	.	.	.	2dd\	.	2ff\	.	.	.	.	.	.	.	.	.	.
.	.	.	.	2ee\	.	2gg\	.	.	.	.	.	.	.	.	.	.
.	.	.	.	2ff\	.	2aa\	.	.	.	.	.	.	.	.	.	.
!	!	!	!	!LO:TX:t=P:problem:kreska pseudotaktowa	!	!LO:TX:t=P:problem:kreska pseudotaktowa	!	!	!	!	!	!	!	!	!	!
.	.	.	1C	1ee	.	1gg	.	.	.	.	.	.	.	.	.	.
=51-	=51-	=51-	=51-	=51-	=51-	=51-	=51-	=51-	=51-	=51-	=51-	=51-	=51-	=51-	=51-	=51-
!LO:LB:g=original	!	!	!	!	!	!	!	!	!	!	!	!	!	!	!	!
1F	.	.	1F	1.ff	.	1.aa	.	.	.	.	.	.	.	.	.	.
!	!	!	!LO:TX:t=P:problem:kreska pseudotaktowa	!	!	!	!	!	!	!	!	!	!	!	!	!
0D	.	.	0D	.	.	.	.	.	.	.	.	.	.	.	.	.
.	.	.	.	2ee\	.	2gg\	.	.	.	.	.	.	.	.	.	.
.	.	.	.	1dd	.	1ff	.	.	.	.	.	.	.	.	.	.
=52-	=52-	=52-	=52-	=52-	=52-	=52-	=52-	=52-	=52-	=52-	=52-	=52-	=52-	=52-	=52-	=52-
!	!	!	!	!	!	!	!	!LO:TX:t=P:problem:kreska pseudotaktowa	!	!	!LO:TX:t=P:problem:kreska pseudotaktowa	!	!	!LO:TX:t=P:problem:kreska pseudotaktowa	!	!
1E	6	.	1E	1cc	.	1ee	.	1%3r	.	.	1%3r	.	.	1%3r	.	.
!	!	!	!	!	!	!LO:TX:t=P:problem:kreska pseudotaktowa	!	!	!	!	!	!	!	!	!	!
1F	6 5	.	1F	1cc	.	0dd	.	.	.	.	.	.	.	.	.	.
!LO:TX:t=P:problem:kreska pseudotaktowa	!	!	!	!LO:TX:t=P:problem:kreska pseudotaktowa	!	!	!	!	!	!	!	!	!	!	!	!
1G	.	.	1G	1b	.	.	.	.	.	.	.	.	.	.	.	.
=53-	=53-	=53-	=53-	=53-	=53-	=53-	=53-	=53-	=53-	=53-	=53-	=53-	=53-	=53-	=53-	=53-
!	!	!	!LO:TX:t=P:problem:kreska pseudotaktowa	!	!	!	!	!	!	!	!	!	!	!	!	!
0.C	.	.	0.C	1cc	.	1ee	.	1cny	jn	.	1e	in	.	1g	in	.
.	.	.	.	1cc	.	1gg	.	1c	qúem	.	1e	qúem	.	1g	qúem	.
.	.	.	.	2cc\	.	1gg	.	1c	de-	.	1e	de-	.	1g	de-	.
!	!	!	!	!LO:TX:t=P:problem:kreska pseudotaktowa	!	!	!	!	!	!	!	!	!	!	!	!
.	.	.	.	2dd\	.	.	.	.	.	.	.	.	.	.	.	.
=54-	=54-	=54-	=54-	=54-	=54-	=54-	=54-	=54-	=54-	=54-	=54-	=54-	=54-	=54-	=54-	=54-
0C	.	.	1.C	2ee\	.	1.gg	.	1.c	-ſi-	.	1.e	-ſi-	.	1.g	-si-	.
.	.	.	.	2dd\	.	.	.	.	.	.	.	.	.	.	.	.
.	.	.	.	2ee\	.	.	.	.	.	.	.	.	.	.	.	.
.	.	.	2C/	2ff\	.	2gg\	.	2c\	-de-	.	2d\	-de-	.	2fny/	-de-	.
!	!	!	!LO:SIC:v:t=custos FF	!	!	!	!	!	!	!	!LO:SIC:v:t=custos f	!	!	!LO:SIC:v:t=custos f	!	!
!LO:TX:t=P:problem:kreska pseudotaktowa	!	!	!LO:TX:t=P:problem:kreska pseudotaktowa	!LO:TX:t=P:problem:kreska pseudotaktowa	!	!LO:TX:t=P:problem:kreska pseudotaktowa	!	!LO:TX:t=P:problem:kreska pseudotaktowa	!	!	!LO:TX:t=P:problem:kreska pseudotaktowa	!	!	!LO:TX:t=P:problem:kreska pseudotaktowa	!	!
1C	.	.	1C	1gg	.	1gg	.	1c	-rant	.	1cny	-rant	.	1e	-rant	.
=55-	=55-	=55-	=55-	=55-	=55-	=55-	=55-	=55-	=55-	=55-	=55-	=55-	=55-	=55-	=55-	=55-
!	!	!	!LO:LB:g=original	!	!	!	!	!	!	!	!LO:LB:g=original	!	!	!	!	!
1.FF	.	.	1.FF	1.aa	.	1.ff	.	(>1.F	An-	.	1.f	An-	.	1.f	An-	.
2GG/	.	.	2GG/	2aa\	.	2ff\	.	2G/)	.	.	2d\	-ge-	.	2f/	-ge-	.
2AA/	.	.	2AA/	1ee	.	2cc\	.	(<2A/	-ge-	.	1c	-li	.	1e	-li	.
!LO:TX:t=P:problem:kreska pseudotaktowa	!	!	!LO:TX:t=P:problem:kreska pseudotaktowa	!	!	!	!	!LO:TX:t=P:problem:kreska pseudotaktowa	!	!	!	!	!	!	!	!
2BB/	.	.	2BB/	.	.	2dd\	.	2B\)	.	.	.	.	.	.	.	.
=56-	=56-	=56-	=56-	=56-	=56-	=56-	=56-	=56-	=56-	=56-	=56-	=56-	=56-	=56-	=56-	=56-
!	!	!	!	!	!	!	!	!LO:LB:g=original	!	!	!	!	!	!	!	!
1C	.	.	1C	1ee	.	1ee	.	2c\	-li	.	1e	pros-	.	1a	pros-	.
.	.	.	.	.	.	.	.	2C/	pros-	.	.	.	.	.	.	.
1D	.	.	1D	1a	.	1ff	.	1D	-pi-	.	1d	-pi-	.	1.a	-pi-	.
1E	#	.	1E	1ee	.	1ee	.	1E	-ce-	.	1B	-ce-	.	.	.	.
.	.	.	.	.	.	.	.	.	.	.	.	.	.	2g#X/	-ce-	.
=57-	=57-	=57-	=57-	=57-	=57-	=57-	=57-	=57-	=57-	=57-	=57-	=57-	=57-	=57-	=57-	=57-
*M2/1	*	*	*M2/1	*M2/1	*	*M2/1	*	*M2/1	*	*	*M2/1	*	*	*M2/1	*	*
*met(C|)	*	*	*met(C|)	*met(C|)	*	*met(C|)	*	*met(C|)	*	*	*met(C|)	*	*	*met(C|)	*	*
2AA/	.	.	2AA/	2cc\	.	2ee\	.	2A/	-re	.	2c/	-re	.	2a\	-re	.
2BB/	6	.	2BB/	4b/	.	1gg	.	2d\	pros-	.	2d\	pros-	.	2gny/	pros-	.
.	.	.	.	4a/	.	.	.	.	.	.	.	.	.	.	.	.
!	!	!	!	!LO:SIC:v:t=custos dd	!	!	!	!	!	!	!	!	!	!	!	!
!LO:TX:t=P:problem:kreska pseudotaktowa	!	!	!LO:TX:t=P:problem:kreska pseudotaktowa	!LO:TX:t=P:problem:kreska pseudotaktowa	!	!	!	!	!	!	!	!	!	!	!	!
1C	.	.	1C	1g	.	.	.	2.c\	-pi-	.	(1e	-pi-	.	1.g	-pi-	.
!	!	!	!	!	!	!LO:SIC:v:t=custos aa	!	!	!	!	!	!	!	!	!	!
!	!	!	!	!	!	!LO:TX:t=P:problem:kreska pseudotaktowa	!	!	!	!	!	!	!	!	!	!
.	.	.	.	.	.	2ee\	.	.	.	.	.	.	.	.	.	.
!	!	!	!	!	!	!	!	!LO:TX:t=P:problem:kreska pseudotaktowa	!	!	!	!	!	!	!	!
.	.	.	.	.	.	.	.	4B\	.	.	.	.	.	.	.	.
=58-	=58-	=58-	=58-	=58-	=58-	=58-	=58-	=58-	=58-	=58-	=58-	=58-	=58-	=58-	=58-	=58-
!	!	!	!	!LO:LB:g=original	!	!LO:LB:g=original	!	!	!	!	!	!	!	!	!	!
1D	4#r	.	1D	2.dd\	.	1aa	.	2.A/	.	.	2.d\)	.	.	.	.	.
.	.	.	.	.	.	.	.	.	.	.	.	.	.	2f#X/	-ce-	.
.	.	.	.	4dd\	.	.	.	4A/	-ce-	.	4d\	-ce-	.	.	.	.
!LO:TX:t=P:problem:kreska pseudotaktowa	!	!	!LO:TX:t=P:problem:kreska pseudotaktowa	!LO:TX:t=P:problem:kreska pseudotaktowa	!	!LO:TX:t=P:problem:kreska pseudotaktowa	!	!LO:TX:t=P:problem:kreska pseudotaktowa	!	!	!LO:TX:t=P:problem:kreska pseudotaktowa	!	!	!	!	!
1GG;>	.	.	1GG	1dd	.	1gg;<	.	1B	-re	.	1d	-re	.	1g;>	-re,	.
=59||-	=59||-	=59||-	=59||-	=59||-	=59||-	=59||-	=59||-	=59||-	=59||-	=59||-	=59||-	=59||-	=59||-	=59||-	=59||-	=59||-
!LO:PB:g=original	!	!	!LO:TX:b:t=11	!LO:TX:b:t=11	!	!LO:TX:b:t=11	!	!LO:TX:b:t=17	!	!	!LO:TX:b:t=33	!	!	!	!	!
!LO:TX:b:t=Nil Qúidem	!	!	!	!	!	!	!	!	!	!	!	!	!	!	!	!
1GG	.	.	00r	00r	.	00r	.	00r	.	.	00r	.	.	4r	.	.
.	.	.	.	.	.	.	.	.	.	.	.	.	.	4dd\	Nil	.
.	.	.	.	.	.	.	.	.	.	.	.	.	.	4g/	qúi-	.
!	!	!	!	!	!	!	!	!	!	!	!	!	!	!LO:TX:t=P:problem:kreska pseudotaktowa	!	!
.	.	.	.	.	.	.	.	.	.	.	.	.	.	4g/	-dem	.
2GG/	.	.	.	.	.	.	.	.	.	.	.	.	.	8g/	ce-	.
.	.	.	.	.	.	.	.	.	.	.	.	.	.	8g/	-ni-	.
.	.	.	.	.	.	.	.	.	.	.	.	.	.	8.g/	-túz	.
!	!	!	!	!	!	!	!	!	!	!	!	!	!	!LO:SIC:v:t=custos a	!	!
.	.	.	.	.	.	.	.	.	.	.	.	.	.	16f#X/	jú-	.
!LO:TX:t=P:problem:kreska pseudotaktowa	!	!	!	!	!	!	!	!	!	!	!	!	!	!LO:LB:g=original	!	!
2D/	#	.	.	.	.	.	.	.	.	.	.	.	.	4.a\	-cún-	.
!	!	!	!	!	!	!	!	!	!	!	!	!	!	!LO:TX:t=P:problem:kreska pseudotaktowa	!	!
.	.	.	.	.	.	.	.	.	.	.	.	.	.	8a\	-di-	.
=60-	=60-	=60-	=60-	=60-	=60-	=60-	=60-	=60-	=60-	=60-	=60-	=60-	=60-	=60-	=60-	=60-
1D	#	.	.	.	.	.	.	.	.	.	.	.	.	2a\	-ús,	.
.	.	.	.	.	.	.	.	.	.	.	.	.	.	4r	.	.
.	.	.	.	.	.	.	.	.	.	.	.	.	.	4a\	nil	.
2D/	.	.	.	.	.	.	.	.	.	.	.	.	.	8d/	co-	.
.	.	.	.	.	.	.	.	.	.	.	.	.	.	8d/	-li-	.
.	.	.	.	.	.	.	.	.	.	.	.	.	.	8.d/	-túz	.
.	.	.	.	.	.	.	.	.	.	.	.	.	.	16c#X/	be-	.
!LO:TX:t=P:problem:kreska pseudotaktowa	!	!	!	!	!	!	!	!	!	!	!	!	!	!	!	!
2AA/	#	.	.	.	.	.	.	.	.	.	.	.	.	4.e/	-a-	.
!	!	!	!	!	!	!	!	!	!	!	!	!	!	!LO:TX:t=P:problem:kreska pseudotaktowa	!	!
.	.	.	.	.	.	.	.	.	.	.	.	.	.	8e/	-ti-	.
=61-	=61-	=61-	=61-	=61-	=61-	=61-	=61-	=61-	=61-	=61-	=61-	=61-	=61-	=61-	=61-	=61-
!LO:TX:b:t=Canto	!	!	!	!	!	!	!	!	!	!	!	!	!	!	!	!
2.AA/	#	.	00r	00r	.	00r	.	00r	.	.	00r	.	.	2e/	-ús,	.
.	.	.	.	.	.	.	.	.	.	.	.	.	.	4r	.	.
8A\L	6	.	.	.	.	.	.	.	.	.	.	.	.	4e/	Qúam	.
8G\J	.	.	.	.	.	.	.	.	.	.	.	.	.	.	.	.
4F\	.	.	.	.	.	.	.	.	.	.	.	.	.	4fny/	je-	.
4E\	.	.	.	.	.	.	.	.	.	.	.	.	.	4g/	-sús	.
!LO:TX:t=P:problem:kreska pseudotaktowa	!	!	!	!	!	!	!	!	!	!	!	!	!	!	!	!
2D/	.	.	.	.	.	.	.	.	.	.	.	.	.	4a\	de-	.
!	!	!	!	!	!	!	!	!	!	!	!	!	!	!LO:TX:t=P:problem:kreska pseudotaktowa	!	!
.	.	.	.	.	.	.	.	.	.	.	.	.	.	4a\	-i	.
=62-	=62-	=62-	=62-	=62-	=62-	=62-	=62-	=62-	=62-	=62-	=62-	=62-	=62-	=62-	=62-	=62-
2GG/	-	.	.	.	.	.	.	.	.	.	.	.	.	(8b-X\L	de-	.
.	.	.	.	.	.	.	.	.	.	.	.	.	.	8a\J)	.	.
.	.	.	.	.	.	.	.	.	.	.	.	.	.	(8g/L	-i	.
.	.	.	.	.	.	.	.	.	.	.	.	.	.	8f/J)	.	.
2AA/	.	.	.	.	.	.	.	.	.	.	.	.	.	4.e/	fi-	.
!	!	!	!	!	!	!	!	!	!	!	!	!	!	!LO:SIC:v:t=custos d	!	!
!	!	!	!	!	!	!	!	!	!	!	!	!	!	!LO:TX:t=P:problem:kreska pseudotaktowa	!	!
.	.	.	.	.	.	.	.	.	.	.	.	.	.	8e/	-li-	.
!	!	!	!	!	!	!	!	!	!	!	!	!	!	!LO:LB:g=original	!	!
2D/	.	.	.	.	.	.	.	.	.	.	.	.	.	2d/	-ús	.
!LO:TX:t=P:problem:kreska pseudotaktowa	!	!	!	!	!	!	!	!	!	!	!	!	!	!	!	!
2BB-X/	.	.	.	.	.	.	.	.	.	.	.	.	.	4r	.	.
.	.	.	.	.	.	.	.	.	.	.	.	.	.	4dd\	Qúam	.
=63-	=63-	=63-	=63-	=63-	=63-	=63-	=63-	=63-	=63-	=63-	=63-	=63-	=63-	=63-	=63-	=63-
2C/	.	.	0r	0r	.	0r	.	00r	.	.	00r	.	.	8cc\	je-	.
.	.	.	.	.	.	.	.	.	.	.	.	.	.	8bny\	-sús	.
.	.	.	.	.	.	.	.	.	.	.	.	.	.	8a\	de-	.
.	.	.	.	.	.	.	.	.	.	.	.	.	.	8g/	-i	.
2D/	.	.	.	.	.	.	.	.	.	.	.	.	.	4.a\	fi-	.
!	!	!	!	!	!	!	!	!	!	!	!	!	!	!LO:TX:t=P:problem:kreska pseudotaktowa	!	!
.	.	.	.	.	.	.	.	.	.	.	.	.	.	8a\	-li-	.
2.D/	.	.	.	.	.	.	.	.	.	.	.	.	.	2a\	-ús	.
.	.	.	.	.	.	.	.	.	.	.	.	.	.	4r	.	.
!LO:TX:t=P:problem:kreska pseudotaktowa	!	!	!	!	!	!	!	!	!	!	!	!	!	!	!	!
4C/	.	.	.	.	.	.	.	.	.	.	.	.	.	8cc\	de-	.
.	.	.	.	.	.	.	.	.	.	.	.	.	.	8b\	-i	.
=64-	=64-	=64-	=64-	=64-	=64-	=64-	=64-	=64-	=64-	=64-	=64-	=64-	=64-	=64-	=64-	=64-
!	!	!	!LO:TX:t=P:problem:kreska pseudotaktowa	!	!	!	!	!	!	!	!	!	!	!	!	!
1D	4#r	.	1r	1r	.	1r	.	.	.	.	.	.	.	2.a\	fi-	.
!	!	!	!	!	!	!	!	!	!	!	!	!	!	!LO:TX:t=P:problem:kreska pseudotaktowa	!	!
.	.	.	.	.	.	.	.	.	.	.	.	.	.	4a\	-li-	.
4GG/	.	.	4GG/	1.gg	.	1bb	.	.	.	.	.	.	.	2g/	-ús	.
4AA/	.	.	4AA/	.	.	.	.	.	.	.	.	.	.	.	.	.
4BBny/	6	.	4BB/	.	.	.	.	.	.	.	.	.	.	2r	.	.
!LO:TX:t=P:problem:kreska pseudotaktowa	!	!	!	!	!	!	!	!	!	!	!	!	!	!	!	!
4C/	.	.	4C/	.	.	.	.	.	.	.	.	.	.	.	.	.
=65-	=65-	=65-	=65-	=65-	=65-	=65-	=65-	=65-	=65-	=65-	=65-	=65-	=65-	=65-	=65-	=65-
!	!	!	!LO:TX:t=P:problem:kreska pseudotaktowa	!	!	!	!	!	!	!	!	!	!	!LO:TX:b:t=29	!	!
1D	4:3	.	1D	.	.	1aa	.	00r	.	.	00r	.	.	00r	.	.
.	.	.	.	1ff	.	.	.	.	.	.	.	.	.	.	.	.
!	!	!	!	!	!	!LO:TX:t=P:problem:kreska pseudotaktowa	!	!	!	!	!	!	!	!	!	!
2GG/	7	.	2GG/	.	.	1gg	.	.	.	.	.	.	.	.	.	.
!LO:SIC:v:t=custos FF	!	!	!	!	!	!	!	!	!	!	!	!	!	!	!	!
!LO:TX:t=P:problem:kreska pseudotaktowa	!	!	!	!	!	!	!	!	!	!	!	!	!	!	!	!
2C/	.	.	2C/	1ee\	.	.	.	.	.	.	.	.	.	.	.	.
=66-	=66-	=66-	=66-	=66-	=66-	=66-	=66-	=66-	=66-	=66-	=66-	=66-	=66-	=66-	=66-	=66-
2FF/	7	.	2FF/	.	.	1ff	.	.	.	.	.	.	.	.	.	.
!	!	!	!LO:SIC:v:t=custos G	!	!	!	!	!	!	!	!	!	!	!	!	!
!	!	!	!LO:TX:t=P:problem:kreska pseudotaktowa	!	!	!	!	!	!	!	!	!	!	!	!	!
2BB-X/	.	.	2BB-X/	1dd	.	.	.	.	.	.	.	.	.	.	.	.
!	!	!	!LO:LB:g=original	!	!	!	!	!	!	!	!	!	!	!	!	!
2GG/	6 5	.	2GG/	.	.	1ee	.	.	.	.	.	.	.	.	.	.
!LO:TX:t=P:problem:kreska pseudotaktowa	!	!	!	!	!	!	!	!	!	!	!	!	!	!	!	!
2AA/	#	.	2AA/	2cc#X\	.	.	.	.	.	.	.	.	.	.	.	.
=67-	=67-	=67-	=67-	=67-	=67-	=67-	=67-	=67-	=67-	=67-	=67-	=67-	=67-	=67-	=67-	=67-
!LO:TX:b:t=Tenore	!	!	!	!LO:TX:t=P:problem:kreska pseudotaktowa	!	!	!	!LO:TX:t=P:problem:kreska pseudotaktowa	!	!	!	!	!	!	!	!
1D	.	.	1D	1dd	.	1dd	.	1r	.	.	00r	.	.	00r	.	.
!	!	!	!LO:TX:b:t=9	!LO:TX:b:t=9	!	!LO:TX:a:t=9	!	!	!	!	!	!	!	!	!	!
2D/	.	.	00r	00r	.	00r	.	4r	.	.	.	.	.	.	.	.
.	.	.	.	.	.	.	.	4d\	Nil	.	.	.	.	.	.	.
!LO:TX:t=P:problem:kreska pseudotaktowa	!	!	!	!	!	!	!	!	!	!	!	!	!	!	!	!
2G\	-	.	.	.	.	.	.	4B-X\	qúi-	.	.	.	.	.	.	.
!	!	!	!	!	!	!	!	!LO:TX:t=P:problem:kreska pseudotaktowa	!	!	!	!	!	!	!	!
.	.	.	.	.	.	.	.	4B-\	-dem	.	.	.	.	.	.	.
=68-	=68-	=68-	=68-	=68-	=68-	=68-	=68-	=68-	=68-	=68-	=68-	=68-	=68-	=68-	=68-	=68-
2G\	-	.	.	.	.	.	.	8B-X\	cer-	.	.	.	.	.	.	.
.	.	.	.	.	.	.	.	8B-\	-ni-	.	.	.	.	.	.	.
.	.	.	.	.	.	.	.	8B-\	-túr	.	.	.	.	.	.	.
!	!	!	!	!	!	!	!	!LO:SIC:v:t=custos A	!	!	!	!	!	!	!	!
.	.	.	.	.	.	.	.	8A/	jú-	.	.	.	.	.	.	.
!	!	!	!	!	!	!	!	!LO:LB:g=original	!	!	!	!	!	!	!	!
2D/	.	.	.	.	.	.	.	4.A/	-cún-	.	.	.	.	.	.	.
!	!	!	!	!	!	!	!	!LO:TX:t=P:problem:kreska pseudotaktowa	!	!	!	!	!	!	!	!
.	.	.	.	.	.	.	.	8A/	-di-	.	.	.	.	.	.	.
2D/	.	.	.	.	.	.	.	2A/	-ús,	.	.	.	.	.	.	.
!LO:TX:t=P:problem:kreska pseudotaktowa	!	!	!	!	!	!	!	!	!	!	!	!	!	!	!	!
2AA/	.	.	.	.	.	.	.	4r	.	.	.	.	.	.	.	.
.	.	.	.	.	.	.	.	4e\	nil	.	.	.	.	.	.	.
=69-	=69-	=69-	=69-	=69-	=69-	=69-	=69-	=69-	=69-	=69-	=69-	=69-	=69-	=69-	=69-	=69-
2AA/	.	.	.	.	.	.	.	8c\	co-	.	00r	.	.	00r	.	.
.	.	.	.	.	.	.	.	8Bny\	-li-	.	.	.	.	.	.	.
.	.	.	.	.	.	.	.	8c\	-túr	.	.	.	.	.	.	.
.	.	.	.	.	.	.	.	8A/	sú-	.	.	.	.	.	.	.
2E\	.	.	.	.	.	.	.	4.B\	-a-	.	.	.	.	.	.	.
!	!	!	!	!	!	!	!	!LO:TX:t=P:problem:kreska pseudotaktowa	!	!	!	!	!	!	!	!
.	.	.	.	.	.	.	.	8B\	-ve	.	.	.	.	.	.	.
!LO:TX:t=P:problem:kreska pseudotaktowa	!	!	!	!	!	!	!	!	!	!	!	!	!	!	!	!
1E	#	.	00r	00r	.	00r	.	2B\	ús	.	.	.	.	.	.	.
.	.	.	.	.	.	.	.	4r	.	.	.	.	.	.	.	.
.	.	.	.	.	.	.	.	4B\	qúam	.	.	.	.	.	.	.
=70-	=70-	=70-	=70-	=70-	=70-	=70-	=70-	=70-	=70-	=70-	=70-	=70-	=70-	=70-	=70-	=70-
2AA/	.	.	.	.	.	.	.	4c\	je-	.	.	.	.	.	.	.
.	.	.	.	.	.	.	.	4B\	-s(us)	.	.	.	.	.	.	.
2C/	65	.	.	.	.	.	.	4A/	de-	.	.	.	.	.	.	.
!	!	!	!	!	!	!	!	!LO:TX:t=P:problem:kreska pseudotaktowa	!	!	!	!	!	!	!	!
.	.	.	.	.	.	.	.	4G/	-i	.	.	.	.	.	.	.
4AA/	6 5	.	.	.	.	.	.	4.F#X/	fi-	.	.	.	.	.	.	.
4BBny/	#	.	.	.	.	.	.	.	.	.	.	.	.	.	.	.
.	.	.	.	.	.	.	.	8F#/	-li-	.	.	.	.	.	.	.
!LO:TX:t=P:problem:kreska pseudotaktowa	!	!	!	!	!	!	!	!LO:TX:t=P:problem:kreska pseudotaktowa	!	!	!	!	!	!	!	!
2E\	.	.	.	.	.	.	.	2E/	-ús	.	.	.	.	.	.	.
=71-	=71-	=71-	=71-	=71-	=71-	=71-	=71-	=71-	=71-	=71-	=71-	=71-	=71-	=71-	=71-	=71-
2C/	.	.	.	.	.	.	.	4r	.	.	00r	.	.	00r	.	.
!	!	!	!	!	!	!	!	!LO:SIC:v:t=custos f	!	!	!	!	!	!	!	!
.	.	.	.	.	.	.	.	4e\	Qúam	.	.	.	.	.	.	.
!	!	!	!	!	!	!	!	!LO:LB:g=original	!	!	!	!	!	!	!	!
2F\	.	.	.	.	.	.	.	8f\	je-	.	.	.	.	.	.	.
.	.	.	.	.	.	.	.	8e\	-s(us)	.	.	.	.	.	.	.
.	.	.	.	.	.	.	.	8d\	de-	.	.	.	.	.	.	.
!	!	!	!	!	!	!	!	!LO:TX:t=P:problem:kreska pseudotaktowa	!	!	!	!	!	!	!	!
.	.	.	.	.	.	.	.	8c\	-i	.	.	.	.	.	.	.
!LO:TX:t=P:problem:kreska pseudotaktowa	!	!	!LO:TX:t=P:problem:kreska pseudotaktowa	!	!	!LO:TX:t=P:problem:kreska pseudotaktowa	!	!	!	!	!	!	!	!	!	!
1G	43	.	1r	1r	.	1r	.	2.d\	fi-	.	.	.	.	.	.	.
.	.	.	.	.	.	.	.	4d\	-li-	.	.	.	.	.	.	.
=72-	=72-	=72-	=72-	=72-	=72-	=72-	=72-	=72-	=72-	=72-	=72-	=72-	=72-	=72-	=72-	=72-
1C	56	.	1.C	1ee	.	2gg\	.	1c	-ús	.	.	.	.	.	.	.
.	.	.	.	.	.	2aa\	.	.	.	.	.	.	.	.	.	.
!	!	!	!	!LO:TX:t=P:problem:kreska pseudotaktowa	!	!	!	!LO:TX:b:t=14	!	!	!	!	!	!	!	!
2C/	4 2 #	.	.	1dd	.	2ff#X\	.	00r	.	.	.	.	.	.	.	.
!LO:SIC:v:t=custos AA	!	!	!	!	!	!LO:TX:t=P:problem:kreska pseudotaktowa	!	!	!	!	!	!	!	!	!	!
!LO:TX:t=P:problem:kreska pseudotaktowa	!	!	!	!	!	!	!	!	!	!	!	!	!	!	!	!
2BB/	6	.	2BBny/	.	.	2gg\	.	.	.	.	.	.	.	.	.	.
=73-	=73-	=73-	=73-	=73-	=73-	=73-	=73-	=73-	=73-	=73-	=73-	=73-	=73-	=73-	=73-	=73-
!LO:LB:g=original	!	!	!	!	!	!	!	!	!	!	!	!	!	!	!	!
2AA/	65	.	2AA/	2.ccny\	.	4ffny\	.	.	.	.	00r	.	.	00r	.	.
.	.	.	.	.	.	4ee\	.	.	.	.	.	.	.	.	.	.
4A\	.	.	4A\	.	.	1ee	.	.	.	.	.	.	.	.	.	.
!	!	!	!LO:TX:t=P:problem:kreska pseudotaktowa	!	!	!	!	!	!	!	!	!	!	!	!	!
4G\	.	.	4G\	4b/	.	.	.	.	.	.	.	.	.	.	.	.
!LO:TX:t=P:problem:kreska pseudotaktowa	!	!	!	!LO:TX:t=P:problem:kreska pseudotaktowa	!	!	!	!	!	!	!	!	!	!	!	!
1F	76	.	1F	1a	.	.	.	.	.	.	.	.	.	.	.	.
!	!	!	!	!	!	!LO:TX:t=P:problem:kreska pseudotaktowa	!	!	!	!	!	!	!	!	!	!
.	.	.	.	.	.	2dd\	.	.	.	.	.	.	.	.	.	.
=74-	=74-	=74-	=74-	=74-	=74-	=74-	=74-	=74-	=74-	=74-	=74-	=74-	=74-	=74-	=74-	=74-
1E	#	.	2E\	4g#X/	.	2.ee\	.	.	.	.	.	.	.	.	.	.
.	.	.	.	4a/	.	.	.	.	.	.	.	.	.	.	.	.
!	!	!	!LO:TX:t=P:problem:kreska pseudotaktowa	!	!	!	!	!	!	!	!	!	!	!	!	!
.	.	.	2E\	4b/	.	.	.	.	.	.	.	.	.	.	.	.
!	!	!	!	!LO:TX:t=P:problem:kreska pseudotaktowa	!	!	!	!	!	!	!	!	!	!	!	!
.	.	.	.	4cc#X\	.	4ee\	.	.	.	.	.	.	.	.	.	.
2D/	.	.	2D/	8dd\L	.	8ff\L	.	00r	.	.	.	.	.	.	.	.
.	.	.	.	8cc#\J	.	8ee\	.	.	.	.	.	.	.	.	.	.
.	.	.	.	8b/L	.	8dd\	.	.	.	.	.	.	.	.	.	.
.	.	.	.	8a/J	.	8cc\J	.	.	.	.	.	.	.	.	.	.
!LO:TX:t=P:problem:kreska pseudotaktowa	!	!	!	!	!	!	!	!	!	!	!	!	!	!	!	!
2E\	4#r	.	2E\	4.a/	.	2b/	.	.	.	.	.	.	.	.	.	.
.	.	.	.	8g#X/	.	.	.	.	.	.	.	.	.	.	.	.
=75-	=75-	=75-	=75-	=75-	=75-	=75-	=75-	=75-	=75-	=75-	=75-	=75-	=75-	=75-	=75-	=75-
!	!	!	!LO:TX:b:t=a	!	!	!LO:TX:t=P:problem:kreska pseudotaktowa	!	!	!	!	!LO:TX:t=P:problem:kreska pseudotaktowa	!	!	!	!	!
1AA	.	.	1AA	1a	.	1a	.	.	.	.	1r	.	.	00r	.	.
!LO:TX:a:t=Alt.	!	!	!LO:TX:b:t=8	!LO:TX:b:t=8	!	!LO:TX:b:t=8	!	!	!	!	!	!	!	!	!	!
!LO:TX:t=P:problem:kreska pseudotaktowa	!	!	!	!	!	!LO:LB:g=original	!	!	!	!	!	!	!	!	!	!
!LO:TX:b:t=Rogamy ergo	!	!	!	!	!	!	!	!	!	!	!	!	!	!	!	!
1AA	.	.	00r	00r	.	00r	.	.	.	.	4r	.	.	.	.	.
.	.	.	.	.	.	.	.	.	.	.	4e\	Ro-	.	.	.	.
.	.	.	.	.	.	.	.	.	.	.	4.e\	-ga-	.	.	.	.
.	.	.	.	.	.	.	.	.	.	.	8e\	-mús	.	.	.	.
=76-	=76-	=76-	=76-	=76-	=76-	=76-	=76-	=76-	=76-	=76-	=76-	=76-	=76-	=76-	=76-	=76-
2D/	.	.	.	.	.	.	.	.	.	.	2f\	er-	.	.	.	.
!	!	!	!	!	!	!	!	!	!	!	!LO:SIC:v:t=custos e	!	!	!	!	!
!	!	!	!	!	!	!	!	!	!	!	!LO:TX:t=P:problem:kreska pseudotaktowa	!	!	!	!	!
2AA/	.	.	.	.	.	.	.	.	.	.	2e\	-go	.	.	.	.
!	!	!	!	!	!	!	!	!	!	!	!LO:LB:g=original	!	!	!	!	!
2GG#X/	65	.	.	.	.	.	.	00r	.	.	4.e\	Pi-	.	.	.	.
.	.	.	.	.	.	.	.	.	.	.	8d\	-e	.	.	.	.
!LO:TX:t=P:problem:kreska pseudotaktowa	!	!	!	!	!	!	!	!	!	!	!	!	!	!	!	!
2AA/	.	.	.	.	.	.	.	.	.	.	4c#X/	je-	.	.	.	.
!	!	!	!	!	!	!	!	!	!	!	!LO:TX:t=P:problem:kreska pseudotaktowa	!	!	!	!	!
.	.	.	.	.	.	.	.	.	.	.	4c#/	-sú	.	.	.	.
=77-	=77-	=77-	=77-	=77-	=77-	=77-	=77-	=77-	=77-	=77-	=77-	=77-	=77-	=77-	=77-	=77-
2FF#X/	65	.	.	.	.	.	.	.	.	.	4r	.	.	00r	.	.
.	.	.	.	.	.	.	.	.	.	.	8d\	Pi-	.	.	.	.
.	.	.	.	.	.	.	.	.	.	.	8cny/	-e	.	.	.	.
2GGny/	.	.	.	.	.	.	.	.	.	.	4B/	je-	.	.	.	.
!	!	!	!	!	!	!	!	!	!	!	!LO:TX:t=P:problem:kreska pseudotaktowa	!	!	!	!	!
.	.	.	.	.	.	.	.	.	.	.	4B/	-sú	.	.	.	.
!	!	!	!LO:TX:t=P:problem:kreska pseudotaktowa	!LO:TX:t=P:problem:kreska pseudotaktowa	!	!	!	!	!	!	!	!	!	!	!	!
2GG/	.	.	00r	00r	.	00r	.	.	.	.	8r	.	.	.	.	.
.	.	.	.	.	.	.	.	.	.	.	8g\	út	.	.	.	.
.	.	.	.	.	.	.	.	.	.	.	8g\	hic	.	.	.	.
.	.	.	.	.	.	.	.	.	.	.	8f\	mor-	.	.	.	.
!LO:TX:t=P:problem:kreska pseudotaktowa	!	!	!	!	!	!	!	!	!	!	!	!	!	!	!	!
2AA/	.	.	.	.	.	.	.	.	.	.	4e\	-ta-	.	.	.	.
!	!	!	!	!	!	!	!	!	!	!	!LO:TX:t=P:problem:kreska pseudotaktowa	!	!	!	!	!
.	.	.	.	.	.	.	.	.	.	.	4e\	-les	.	.	.	.
=78-	=78-	=78-	=78-	=78-	=78-	=78-	=78-	=78-	=78-	=78-	=78-	=78-	=78-	=78-	=78-	=78-
2.FF#X/	6	.	.	.	.	.	.	.	.	.	2d\	fa-	.	.	.	.
.	.	.	.	.	.	.	.	.	.	.	4.d\	-ci-	.	.	.	.
4GG/	56	.	.	.	.	.	.	.	.	.	.	.	.	.	.	.
.	.	.	.	.	.	.	.	.	.	.	8e\	-em	.	.	.	.
1AA	4#r	.	.	.	.	.	.	0r	.	.	1e	tú-	.	.	.	.
=79-	=79-	=79-	=79-	=79-	=79-	=79-	=79-	=79-	=79-	=79-	=79-	=79-	=79-	=79-	=79-	=79-
!LO:SIC:v:t=custos D	!	!	!	!	!	!	!	!	!	!	!LO:SIC:v:t=custos f	!	!	!LO:TX:t=P:problem:kreska pseudotaktowa	!	!
!LO:TX:t=P:problem:kreska pseudotaktowa	!	!	!	!	!	!	!	!LO:TX:t=P:problem:kreska pseudotaktowa	!	!	!LO:TX:t=P:problem:kreska pseudotaktowa	!	!	!	!	!
1D	.	.	.	.	.	.	.	.	.	.	1d	-am	.	0r	.	.
!LO:TX:t=P:problem:brak pauzy 1r	!	!	!LO:TX:t=P:problem:brak pauzy 1r	!LO:TX:t=P:problem:brak pauzy 1r	!	!LO:TX:t=P:problem:brak pauzy 1r	!	!LO:TX:t=P:problem:brak pauzy 1r	!	!	!LO:TX:t=P:problem:brak pauzy 1r	!	!	!	!	!
1ryy	.	.	1ryy	1ryy	.	1ryy	.	1ryy	.	.	1ryy	.	.	.	.	.
=80-	=80-	=80-	=80-	=80-	=80-	=80-	=80-	=80-	=80-	=80-	=80-	=80-	=80-	=80-	=80-	=80-
*M3/1	*	*	*M3/1	*M3/1	*	*M3/1	*	*M3/1	*	*	*M3/1	*	*	*M3/1	*	*
!	!	!	!LO:TX:b:t=7	!LO:TX:b:t=7	!	!LO:TX:b:t=7	!	!LO:TX:b:t=7	!	!	!LO:LB:g=original	!	!	!LO:TX:b:t=7	!	!
!LO:LB:g=original	!	!	!	!LO:LB:g=original	!	!	!	!	!	!	!	!	!	!	!	!
0.D	.	.	1%6r	1%6r	.	1%6r	.	1%6r	.	.	1.f	di-	.	1%6r	.	.
.	.	.	.	.	.	.	.	.	.	.	2e\	-gne	.	.	.	.
.	.	.	.	.	.	.	.	.	.	.	2f\	ve-	.	.	.	.
.	.	.	.	.	.	.	.	.	.	.	2d\	-re-	.	.	.	.
=81-	=81-	=81-	=81-	=81-	=81-	=81-	=81-	=81-	=81-	=81-	=81-	=81-	=81-	=81-	=81-	=81-
!LO:TX:t=P:problem:kreska pseudotaktowa	!	!	!	!	!	!	!	!	!	!	!	!	!	!	!	!
0.AA	.	.	.	.	.	.	.	.	.	.	0e	-a-	.	.	.	.
!	!	!	!	!	!	!	!	!	!	!	!LO:TX:t=P:problem:kreska pseudotaktowa	!	!	!	!	!
.	.	.	.	.	.	.	.	.	.	.	1e	-múz	.	.	.	.
=82-	=82-	=82-	=82-	=82-	=82-	=82-	=82-	=82-	=82-	=82-	=82-	=82-	=82-	=82-	=82-	=82-
1BB-X	.	.	1%6r	1%6r	.	1%6r	.	1%6r	.	.	1r	.	.	1%6r	.	.
1D	.	.	.	.	.	.	.	.	.	.	1d	út	.	.	.	.
1E	.	.	.	.	.	.	.	.	.	.	1d	in	.	.	.	.
=83-	=83-	=83-	=83-	=83-	=83-	=83-	=83-	=83-	=83-	=83-	=83-	=83-	=83-	=83-	=83-	=83-
!LO:TX:t=P:problem:kreska pseudotaktowa	!	!	!	!	!	!	!	!	!	!	!	!	!	!	!	!
0.F	.	.	.	.	.	.	.	.	.	.	0c	Coe-	.	.	.	.
!	!	!	!	!	!	!	!	!	!	!	!LO:TX:t=P:problem:kreska pseudotaktowa	!	!	!	!	!
.	.	.	.	.	.	.	.	.	.	.	1c	-lis	.	.	.	.
=84-	=84-	=84-	=84-	=84-	=84-	=84-	=84-	=84-	=84-	=84-	=84-	=84-	=84-	=84-	=84-	=84-
0F	.	.	1%6r	1%6r	.	1%6r	.	1%6r	.	.	(1f	te	.	1%6r	.	.
.	.	.	.	.	.	.	.	.	.	.	1e)	vi-	.	.	.	.
1G	.	.	.	.	.	.	.	.	.	.	1d	-de-	.	.	.	.
=85-	=85-	=85-	=85-	=85-	=85-	=85-	=85-	=85-	=85-	=85-	=85-	=85-	=85-	=85-	=85-	=85-
1C	-	.	.	.	.	.	.	.	.	.	1e-X	-a-	.	.	.	.
0G	.	.	.	.	.	.	.	.	.	.	0d	-mús	.	.	.	.
=86-	=86-	=86-	=86-	=86-	=86-	=86-	=86-	=86-	=86-	=86-	=86-	=86-	=86-	=86-	=86-	=86-
0.C	.	.	1%3r	1%3r	.	1%3r	.	1%3r	.	.	0.c	te	.	1%3r	.	.
=87-	=87-	=87-	=87-	=87-	=87-	=87-	=87-	=87-	=87-	=87-	=87-	=87-	=87-	=87-	=87-	=87-
*M2/1	*	*	*M2/1	*M2/1	*	*M2/1	*	*M2/1	*	*	*M2/1	*	*	*M2/1	*	*
*met(C|)	*	*	*met(C|)	*met(C|)	*	*met(C|)	*	*met(C|)	*	*	*met(C|)	*	*	*met(C|)	*	*
!	!	!	!LO:TX:b:t=3	!LO:TX:b:t=3	!	!LO:TX:b:t=3	!	!LO:TX:a:t=3	!	!	!	!	!	!LO:TX:b:t=3	!	!
!	!	!	!	!	!	!	!	!	!	!	!	!	!	!LO:LB:g=original	!	!
2C/	.	.	0r	0r	.	0r	.	0r	.	.	2eny\	vi-	.	0r	.	.
2D/	.	.	.	.	.	.	.	.	.	.	4d\	-de-	.	.	.	.
!	!	!	!	!	!	!	!	!	!	!	!LO:SIC:v:t=custos b	!	!	!	!	!
!	!	!	!	!	!	!	!	!	!	!	!LO:TX:t=P:problem:kreska pseudotaktowa	!	!	!	!	!
.	.	.	.	.	.	.	.	.	.	.	4c/	.	.	.	.	.
!	!	!	!	!	!	!	!	!	!	!	!LO:LB:g=original	!	!	!	!	!
1E	4#r	.	.	.	.	.	.	.	.	.	1B	-a-	.	.	.	.
=88-	=88-	=88-	=88-	=88-	=88-	=88-	=88-	=88-	=88-	=88-	=88-	=88-	=88-	=88-	=88-	=88-
!LO:TX:t=P:problem:kreska pseudotaktowa	!	!	!LO:TX:t=P:problem:kreska pseudotaktowa	!LO:TX:t=P:problem:kreska pseudotaktowa	!	!	!	!LO:TX:t=P:problem:kreska pseudotaktowa	!	!	!	!	!	!	!	!
1AA	.	.	1r	1r	.	1r	.	1r	.	.	1A	-mús	.	1r	.	.
!LO:TX:t=P:problem:brak pauzy 1r	!	!	!LO:TX:t=P:problem:brak pauzy 1r	!LO:TX:t=P:problem:brak pauzy 1r	!	!LO:TX:t=P:problem:brak pauzy 1r	!	!LO:TX:t=P:problem:brak pauzy 1r	!	!	!LO:TX:t=P:problem:brak pauzy 1r	!	!	!LO:TX:t=P:problem:brak pauzy 1r	!	!
1ryy	.	.	1ryy	1ryy	.	1ryy	.	1ryy	.	.	1ryy	.	.	1ryy	.	.
=89-	=89-	=89-	=89-	=89-	=89-	=89-	=89-	=89-	=89-	=89-	=89-	=89-	=89-	=89-	=89-	=89-
*M3/1	*	*	*M3/1	*M3/1	*	*M3/1	*	*M3/1	*	*	*M3/1	*	*	*M3/1	*	*
!	!	!	!	!	!	!	!	!	!	!	!LO:TX:t=P:problem:metrum (C|)	!	!	!	!	!
!	!	!	!LO:LB:g=original	!	!	!LO:TX:b:t=2	!	!LO:TX:b:t=11	!	!	!LO:TX:b:t=12	!	!	!LO:TX:b:t=10	!	!
1r	.	.	1r	1%3r	.	1%6r	.	1%6r	.	.	1%6r	.	.	1%6r	.	.
!LO:TX:b:t=Allelúja	!	!	!	!	!	!	!	!	!	!	!	!	!	!	!	!
1A	.	.	1A	.	.	.	.	.	.	.	.	.	.	.	.	.
1A	.	.	1A	.	.	.	.	.	.	.	.	.	.	.	.	.
=90-	=90-	=90-	=90-	=90-	=90-	=90-	=90-	=90-	=90-	=90-	=90-	=90-	=90-	=90-	=90-	=90-
0A	.	.	0A	1r	.	.	.	.	.	.	.	.	.	.	.	.
.	.	.	.	1ee	.	.	.	.	.	.	.	.	.	.	.	.
!LO:SIC:v:t=custos A	!	!	!LO:TX:t=P:problem:kreska pseudotaktowa	!	!	!	!	!	!	!	!	!	!	!	!	!
!LO:TX:t=P:problem:kreska pseudotaktowa	!	!	!	!	!	!	!	!	!	!	!	!	!	!	!	!
1G#X	6	.	1G#X	1ee	.	.	.	.	.	.	.	.	.	.	.	.
=91-	=91-	=91-	=91-	=91-	=91-	=91-	=91-	=91-	=91-	=91-	=91-	=91-	=91-	=91-	=91-	=91-
!LO:LB:g=original	!	!	!	!LO:TX:t=P:problem:kreska pseudotaktowa	!	!	!	!	!	!	!	!	!	!	!	!
0A	.	.	0A	0.ee	.	1r	.	1%6r	.	.	1%6r	.	.	1%6r	.	.
.	.	.	.	.	.	1aa	.	.	.	.	.	.	.	.	.	.
!	!	!	!	!	!	!LO:TX:t=P:problem:kreska pseudotaktowa	!	!	!	!	!	!	!	!	!	!
2A\	.	.	2A\	.	.	1aa	.	.	.	.	.	.	.	.	.	.
2Gny\	.	.	2Gny\	.	.	.	.	.	.	.	.	.	.	.	.	.
=92-	=92-	=92-	=92-	=92-	=92-	=92-	=92-	=92-	=92-	=92-	=92-	=92-	=92-	=92-	=92-	=92-
1F	6	.	1F	1dd	.	0aa	.	.	.	.	.	.	.	.	.	.
!LO:TX:t=P:problem:kreska pseudotaktowa	!	!	!LO:TX:t=P:problem:kreska pseudotaktowa	!	!	!	!	!	!	!	!	!	!	!	!	!
0E	4#r	.	0E	1.ee	.	.	.	.	.	.	.	.	.	.	.	.
.	.	.	.	.	.	1gg#X	.	.	.	.	.	.	.	.	.	.
.	.	.	.	2ee\	.	.	.	.	.	.	.	.	.	.	.	.
=93-	=93-	=93-	=93-	=93-	=93-	=93-	=93-	=93-	=93-	=93-	=93-	=93-	=93-	=93-	=93-	=93-
0.F	.	.	0.F	1%3r	.	0aa	.	1%6r	.	.	1%6r	.	.	1%6r	.	.
.	.	.	.	.	.	2aa\	.	.	.	.	.	.	.	.	.	.
!	!	!	!	!	!	!LO:TX:t=P:problem:kreska pseudotaktowa	!	!	!	!	!	!	!	!	!	!
.	.	.	.	.	.	2ggny\	.	.	.	.	.	.	.	.	.	.
=94-	=94-	=94-	=94-	=94-	=94-	=94-	=94-	=94-	=94-	=94-	=94-	=94-	=94-	=94-	=94-	=94-
1G	7 5	.	1G	0a	.	1ff	.	.	.	.	.	.	.	.	.	.
!LO:TX:t=P:problem:kreska pseudotaktowa	!	!	!LO:TX:t=P:problem:kreska pseudotaktowa	!	!	!	!	!	!	!	!	!	!	!	!	!
0A	4#r	.	0A	.	.	1ee	.	.	.	.	.	.	.	.	.	.
!	!	!	!	!	!	!LO:TX:t=P:problem:kreska pseudotaktowa	!	!	!	!	!	!	!	!	!	!
.	.	.	.	2ccny\	.	1ee	.	.	.	.	.	.	.	.	.	.
!	!	!	!	!LO:TX:t=P:problem:kreska pseudotaktowa	!	!	!	!	!	!	!	!	!	!	!	!
.	.	.	.	2dd\	.	.	.	.	.	.	.	.	.	.	.	.
=95-	=95-	=95-	=95-	=95-	=95-	=95-	=95-	=95-	=95-	=95-	=95-	=95-	=95-	=95-	=95-	=95-
0D	.	.	0D	1dd	.	0dd	.	1%6r	.	.	1%6r	.	.	1%6r	.	.
.	.	.	.	1.dd	.	.	.	.	.	.	.	.	.	.	.	.
1E	6	.	1E	.	.	1gg	.	.	.	.	.	.	.	.	.	.
.	.	.	.	2cc#X\	.	.	.	.	.	.	.	.	.	.	.	.
=96-	=96-	=96-	=96-	=96-	=96-	=96-	=96-	=96-	=96-	=96-	=96-	=96-	=96-	=96-	=96-	=96-
0C	.	.	0C	0dd	.	1gg	.	.	.	.	.	.	.	.	.	.
!	!	!	!	!	!	!LO:SIC:v:t=custos gg	!	!	!	!	!	!	!	!	!	!
!	!	!	!	!	!	!LO:TX:t=P:problem:kreska pseudotaktowa	!	!	!	!	!	!	!	!	!	!
.	.	.	.	.	.	0ff#X	.	.	.	.	.	.	.	.	.	.
!LO:TX:t=P:problem:kreska pseudotaktowa	!	!	!LO:TX:t=P:problem:kreska pseudotaktowa	!	!	!	!	!	!	!	!	!	!	!	!	!
1D	#	.	1D	2cc#\	.	.	.	.	.	.	.	.	.	.	.	.
!	!	!	!	!LO:TX:t=P:problem:kreska pseudotaktowa	!	!	!	!	!	!	!	!	!	!	!	!
.	.	.	.	2dd\	.	.	.	.	.	.	.	.	.	.	.	.
=97-	=97-	=97-	=97-	=97-	=97-	=97-	=97-	=97-	=97-	=97-	=97-	=97-	=97-	=97-	=97-	=97-
!	!	!	!	!	!	!LO:LB:g=original	!	!	!	!	!	!	!	!	!	!
1GG	.	.	1GG	1ee	.	1gg	.	1%6r	.	.	1%6r	.	.	1%6r	.	.
0C#X	6	.	0C#X	1.dd	.	0aa	.	.	.	.	.	.	.	.	.	.
.	.	.	.	2ccny\	.	.	.	.	.	.	.	.	.	.	.	.
=98-	=98-	=98-	=98-	=98-	=98-	=98-	=98-	=98-	=98-	=98-	=98-	=98-	=98-	=98-	=98-	=98-
0D	.	.	0D	1b	.	0aa	.	.	.	.	.	.	.	.	.	.
!	!	!	!	!LO:TX:t=P:problem:kreska pseudotaktowa	!	!	!	!	!	!	!	!	!	!	!	!
.	.	.	.	0ee	.	.	.	.	.	.	.	.	.	.	.	.
!	!	!	!LO:SIC:v:t=custos AA	!	!	!LO:TX:t=P:problem:kreska pseudotaktowa	!	!	!	!	!	!	!	!	!	!
!LO:TX:t=P:problem:kreska pseudotaktowa	!	!	!LO:TX:t=P:problem:kreska pseudotaktowa	!	!	!	!	!	!	!	!	!	!	!	!	!
1E	#	.	1E	.	.	1gg#X	.	.	.	.	.	.	.	.	.	.
=99-	=99-	=99-	=99-	=99-	=99-	=99-	=99-	=99-	=99-	=99-	=99-	=99-	=99-	=99-	=99-	=99-
!	!	!	!LO:LB:g=original	!LO:LB:g=original	!	!	!	!	!	!	!LO:TX:t=P:problem:kreska pseudotaktowa	!	!	!	!	!
1AA	.	.	1AA	2dd\	.	1aa	.	1%3r	.	.	1%6r	.	.	1r	.	.
.	.	.	.	2ee\	.	.	.	.	.	.	.	.	.	.	.	.
1A	.	.	1A	2dd\	.	1r	.	.	.	.	.	.	.	1cc	Al-	.
.	.	.	.	2cc\	.	.	.	.	.	.	.	.	.	.	.	.
!	!	!	!	!LO:TX:t=P:problem:kreska pseudotaktowa	!	!	!	!	!	!	!	!	!	!LO:TX:t=P:problem:kreska pseudotaktowa	!	!
1A	.	.	1A	1b	.	1r	.	.	.	.	.	.	.	1cc	-le-	.
=100-	=100-	=100-	=100-	=100-	=100-	=100-	=100-	=100-	=100-	=100-	=100-	=100-	=100-	=100-	=100-	=100-
0A	.	.	0A	1a	.	1%6r	.	1r	.	.	.	.	.	(0cc	-lú-	.
.	.	.	.	1r	.	.	.	1e	Al-	.	.	.	.	.	.	.
!LO:SIC:v:t=custos A	!	!	!LO:TX:t=P:problem:kreska pseudotaktowa	!	!	!	!	!	!	!	!	!	!	!	!	!
!LO:TX:t=P:problem:kreska pseudotaktowa	!	!	!	!	!	!	!	!	!	!	!	!	!	!	!	!
1G#X	6	.	1G#X	1r	.	.	.	1e	-le-	.	.	.	.	1b)	.	.
=101-	=101-	=101-	=101-	=101-	=101-	=101-	=101-	=101-	=101-	=101-	=101-	=101-	=101-	=101-	=101-	=101-
!LO:LB:g=original	!	!	!	!LO:TX:b:t=7	!	!	!	!	!	!	!	!	!	!	!	!
0A	.	.	0A	1%6r	.	.	.	0e	-lú-	.	1r	.	.	1cc	-ja	.
.	.	.	.	.	.	.	.	.	.	.	1a	Al-	.	(2ee\	Al-	.
.	.	.	.	.	.	.	.	.	.	.	.	.	.	2dd\)	.	.
!	!	!	!	!	!	!	!	!LO:SIC:v:t=custos d	!	!	!	!	!	!	!	!
!	!	!	!	!	!	!	!	!LO:TX:t=P:problem:kreska pseudotaktowa	!	!	!	!	!	!	!	!
2A\	.	.	2A\	.	.	.	.	1e	-ja	.	1a	-le-	.	(2cc\	-le-	.
!	!	!	!	!	!	!	!	!	!	!	!	!	!	!LO:TX:t=P:problem:kreska pseudotaktowa	!	!
2Gny\	.	.	2Gny\	.	.	.	.	.	.	.	.	.	.	2b\)	.	.
=102-	=102-	=102-	=102-	=102-	=102-	=102-	=102-	=102-	=102-	=102-	=102-	=102-	=102-	=102-	=102-	=102-
!	!	!	!	!	!	!	!	!LO:LB:g=original	!	!	!	!	!	!	!	!
1F	6	.	1F	.	.	1%6r	.	1d	Al-	.	(0a	-lú-	.	(2a\	-lú-	.
.	.	.	.	.	.	.	.	.	.	.	.	.	.	2b\)	.	.
!LO:TX:t=P:problem:kreska pseudotaktowa	!	!	!LO:TX:t=P:problem:kreska pseudotaktowa	!	!	!	!	!	!	!	!	!	!	!	!	!
0E	4#r	.	0E	.	.	.	.	0e	-le-	.	.	.	.	1cc	-ja	.
!	!	!	!	!	!	!	!	!	!	!	!LO:TX:t=P:problem:kreska pseudotaktowa	!	!	!LO:TX:t=P:problem:kreska pseudotaktowa	!	!
.	.	.	.	.	.	.	.	.	.	.	1g#X)	.	.	1r	.	.
=103-	=103-	=103-	=103-	=103-	=103-	=103-	=103-	=103-	=103-	=103-	=103-	=103-	=103-	=103-	=103-	=103-
0.F	.	.	0.F	1%6r	.	.	.	(<2A/	-lú-	.	0a	-ja	.	2f/	Al-	.
.	.	.	.	.	.	.	.	2G/	.	.	.	.	.	2e/	.	.
.	.	.	.	.	.	.	.	2A/)	.	.	.	.	.	2f/	.	.
.	.	.	.	.	.	.	.	2B\	.	.	.	.	.	2g/	.	.
!	!	!	!	!	!	!	!	!	!	!	!	!	!	!LO:SIC:v:t=custos b	!	!
!	!	!	!	!	!	!	!	!LO:TX:t=P:problem:kreska pseudotaktowa	!	!	!	!	!	!LO:TX:t=P:problem:kreska pseudotaktowa	!	!
.	.	.	.	.	.	.	.	1A	-ja	.	(2a\	Al-	.	1a	.	.
.	.	.	.	.	.	.	.	.	.	.	2gny\)	.	.	.	.	.
=104-	=104-	=104-	=104-	=104-	=104-	=104-	=104-	=104-	=104-	=104-	=104-	=104-	=104-	=104-	=104-	=104-
*	*	*	*	*	*	*	*	*	*	*	*	*	*	*col	*	*
1G	7 5	.	1G	.	.	1%6r	.	1d	Al-	.	1f	-le-	.	1b-X	-le-	.
!LO:TX:t=P:problem:kreska pseudotaktowa	!	!	!	!	!	!	!	!	!	!	!	!	!	!	!	!
0A	4#r	.	1A	.	.	.	.	1.d	-le-	.	1e	-lú-	.	0a	-lú-	.
!	!	!	!LO:TX:t=P:problem:kreska pseudotaktowa	!	!	!	!	!	!	!	!LO:TX:t=P:problem:kreska pseudotaktowa	!	!	!	!	!
.	.	.	1A	.	.	.	.	.	.	.	1e	-ja	.	.	.	.
.	.	.	.	.	.	.	.	2c#X\	-lú-	.	.	.	.	.	.	.
*	*	*	*	*	*	*	*	*	*	*	*	*	*	*Xcol	*	*
=105-	=105-	=105-	=105-	=105-	=105-	=105-	=105-	=105-	=105-	=105-	=105-	=105-	=105-	=105-	=105-	=105-
0D	.	.	0D	1%6r	.	.	.	0d	-ja	.	0f	Al-	.	0.a	-ja	.
!	!	!	!	!	!	!	!	!LO:TX:t=P:problem:kreska pseudotaktowa	!	!	!	!	!	!	!	!
2E\	.	.	2E\	.	.	.	.	1c#	Al-	.	1e	-le-	.	.	.	.
2F\	.	.	2F\	.	.	.	.	.	.	.	.	.	.	.	.	.
=106-	=106-	=106-	=106-	=106-	=106-	=106-	=106-	=106-	=106-	=106-	=106-	=106-	=106-	=106-	=106-	=106-
!	!	!	!	!	!	!LO:TX:t=P:problem:kreska pseudotaktowa	!	!	!	!	!	!	!	!LO:TX:t=P:problem:kreska pseudotaktowa	!	!
0G	.	.	0G	.	.	1%3r	.	0B	-le-	.	0d	-lú-	.	1%3r	.	.
!	!	!	!	!	!	!	!	!	!	!	!LO:SIC:v:t=custos e	!	!	!	!	!
!	!	!	!	!	!	!	!	!	!	!	!LO:TX:t=P:problem:kreska pseudotaktowa	!	!	!	!	!
2Cny/	.	.	2Cny/	.	.	.	.	1cny	-lú-	.	1e	-ja	.	.	.	.
!LO:TX:t=P:problem:kreska pseudotaktowa	!	!	!LO:TX:t=P:problem:kreska pseudotaktowa	!	!	!	!	!	!	!	!	!	!	!	!	!
2D/	.	.	2D/	.	.	.	.	.	.	.	.	.	.	.	.	.
=107-	=107-	=107-	=107-	=107-	=107-	=107-	=107-	=107-	=107-	=107-	=107-	=107-	=107-	=107-	=107-	=107-
!	!	!	!	!	!	!	!	!	!	!	!LO:LB:g=original	!	!	!	!	!
0E	#	.	0E	1%3r	.	1r	.	0G#X	-ja	.	(2e\	Al-	.	1r	.	.
.	.	.	.	.	.	.	.	.	.	.	2d\)	.	.	.	.	.
.	.	.	.	.	.	1r	.	.	.	.	(1c	-le-	.	1r	.	.
!	!	!	!	!	!	!	!	!LO:TX:t=P:problem:kreska pseudotaktowa	!	!	!	!	!	!	!	!
1D	.	.	1D	.	.	1aa	.	1A	Al-	.	1f)	.	.	(2dd\	Al-	.
.	.	.	.	.	.	.	.	.	.	.	.	.	.	2cc\)	.	.
=108-	=108-	=108-	=108-	=108-	=108-	=108-	=108-	=108-	=108-	=108-	=108-	=108-	=108-	=108-	=108-	=108-
!LO:TX:t=P:problem:kreska pseudotaktowa	!	!	!LO:TX:t=P:problem:kreska pseudotaktowa	!	!	!	!	!	!	!	!	!	!	!	!	!
0.E	4#r	.	0.E	0r	.	0aa	.	0A	-le-	.	0.e	-lú-	.	(1.bny	-le-	.
.	.	.	.	.	.	.	.	.	.	.	.	.	.	.	.	.
.	.	.	.	.	.	.	.	.	.	.	.	.	.	2a\)	.	.
!	!	!	!	!	!	!LO:TX:t=P:problem:kreska pseudotaktowa	!	!	!	!	!	!	!	!	!	!
.	.	.	.	1ff	.	1gg#X	.	1G#X	-lú-	.	.	.	.	(2b\	-lú-	.
!	!	!	!	!	!	!	!	!	!	!	!	!	!	!LO:TX:t=P:problem:kreska pseudotaktowa	!	!
.	.	.	.	.	.	.	.	.	.	.	.	.	.	2cc\)	.	.
=109-	=109-	=109-	=109-	=109-	=109-	=109-	=109-	=109-	=109-	=109-	=109-	=109-	=109-	=109-	=109-	=109-
1AA	.	.	1AA	0ee	.	1aa	.	1A	-ja	.	1e	-ja	.	1a	-ja	.
1AA	.	.	1AA	.	.	2ccc\	.	1r	.	.	1r	.	.	1r	.	.
.	.	.	.	.	.	2bb\	.	.	.	.	.	.	.	.	.	.
!	!	!	!	!LO:TX:t=P:problem:kreska pseudotaktowa	!	!	!	!	!	!	!	!	!	!	!	!
1AA	.	.	1AA	1ee	.	2aa\	.	1r	.	.	1r	.	.	1r	.	.
!	!	!	!	!	!	!LO:TX:t=P:problem:kreska pseudotaktowa	!	!	!	!	!	!	!	!	!	!
.	.	.	.	.	.	2ggny\	.	.	.	.	.	.	.	.	.	.
=110-	=110-	=110-	=110-	=110-	=110-	=110-	=110-	=110-	=110-	=110-	=110-	=110-	=110-	=110-	=110-	=110-
!	!	!	!	!	!	!	!	!LO:TX:b:t=3	!	!	!LO:TX:b:t=2	!	!	!LO:TX:b:t=4	!	!
!	!	!	!	!	!	!	!	!	!	!	!LO:TX:t=P:problem:kreska pseudotaktowa	!	!	!	!	!
0BB-X	.	.	0BB-X	1ee	.	1.ffny	.	1%6r	.	.	1%6r	.	.	1%6r	.	.
.	.	.	.	2aa\	.	.	.	.	.	.	.	.	.	.	.	.
.	.	.	.	2gg\	.	2gg\	.	.	.	.	.	.	.	.	.	.
!	!	!	!LO:SIC:v:t=custos GG	!	!	!LO:TX:t=P:problem:kreska pseudotaktowa	!	!	!	!	!	!	!	!	!	!
!LO:TX:t=P:problem:kreska pseudotaktowa	!	!	!LO:TX:t=P:problem:kreska pseudotaktowa	!	!	!	!	!	!	!	!	!	!	!	!	!
1AA	6	.	1AA	2ff\	.	1aa	.	.	.	.	.	.	.	.	.	.
!	!	!	!	!LO:TX:t=P:problem:kreska pseudotaktowa	!	!	!	!	!	!	!	!	!	!	!	!
.	.	.	.	2ee\	.	.	.	.	.	.	.	.	.	.	.	.
=111-	=111-	=111-	=111-	=111-	=111-	=111-	=111-	=111-	=111-	=111-	=111-	=111-	=111-	=111-	=111-	=111-
!	!	!	!LO:LB:g=original	!	!	!	!	!	!	!	!	!	!	!	!	!
0GG	-	.	0GG	1.dd	.	2bb-X\	.	.	.	.	.	.	.	.	.	.
.	.	.	.	.	.	2aa\	.	.	.	.	.	.	.	.	.	.
.	.	.	.	.	.	2gg\	.	.	.	.	.	.	.	.	.	.
.	.	.	.	2ee\	.	2ff\	.	.	.	.	.	.	.	.	.	.
!LO:SIC:v:t=custos D	!	!	!	!	!	!LO:SIC:v:t=custos ff	!	!	!	!	!	!	!	!	!	!
!	!	!	!	!LO:TX:t=P:problem:kreska pseudotaktowa	!	!LO:TX:t=P:problem:kreska pseudotaktowa	!	!	!	!	!	!	!	!	!	!
1AA	#	.	1AA	1ff	.	1ee	.	.	.	.	.	.	.	.	.	.
=112-	=112-	=112-	=112-	=112-	=112-	=112-	=112-	=112-	=112-	=112-	=112-	=112-	=112-	=112-	=112-	=112-
!LO:LB:g=original	!	!	!	!	!	!LO:LB:g=original	!	!LO:TX:t=P:problem:kreska pseudotaktowa	!	!	!	!	!	!LO:TX:b:t=Verte	!	!
!	!	!	!	!	!	!	!	!	!	!	!	!	!	!LO:TX:t=P:problem:kreska pseudotaktowa	!	!
1D	.	.	1D	2gg\	.	1ff#X	.	1%3r	.	.	1r	.	.	1%6r	.	.
.	.	.	.	2ff\	.	.	.	.	.	.	.	.	.	.	.	.
1D	.	.	1D	2ee\	.	1r	.	.	.	.	1f	Al-	.	.	.	.
.	.	.	.	2dd\	.	.	.	.	.	.	.	.	.	.	.	.
!LO:TX:t=P:problem:kreska pseudotaktowa	!	!	!LO:TX:t=P:problem:kreska pseudotaktowa	!	!	!	!	!	!	!	!	!	!	!	!	!
1D	.	.	1D	1cc#X	.	1r	.	.	.	.	1f	-le-	.	.	.	.
=113-	=113-	=113-	=113-	=113-	=113-	=113-	=113-	=113-	=113-	=113-	=113-	=113-	=113-	=113-	=113-	=113-
!	!	!	!	!	!	!LO:TX:b:t=10	!	!	!	!	!	!	!	!	!	!
!	!	!	!	!	!	!	!	!LO:LB:g=original	!	!	!	!	!	!	!	!
0D	.	.	0D	1dd	.	1%6r	.	1r	.	.	(<0f	-lú-	.	.	.	.
.	.	.	.	1r	.	.	.	1A	Al-	.	.	.	.	.	.	.
!	!	!	!	!LO:TX:t=P:problem:kreska pseudotaktowa	!	!	!	!	!	!	!LO:TX:t=P:problem:kreska pseudotaktowa	!	!	!	!	!
1C#X	6	.	1C#X	1r	.	.	.	1A	-le-	.	1e)	.	.	.	.	.
=114-	=114-	=114-	=114-	=114-	=114-	=114-	=114-	=114-	=114-	=114-	=114-	=114-	=114-	=114-	=114-	=114-
!	!	!	!	!LO:LB:g=original	!	!	!	!	!	!	!	!	!	!	!	!
!	!	!	!	!LO:TX:b:t=8	!	!	!	!	!	!	!	!	!	!LO:PB:g=original 	!	!
0D	.	.	0D	1%6r	.	.	.	0A	-lú-	.	1f	-ja	.	1r	.	.
.	.	.	.	.	.	.	.	.	.	.	(2a\	Al-	.	1dd	Al-	.
.	.	.	.	.	.	.	.	.	.	.	2g\)	.	.	.	.	.
!	!	!	!	!	!	!	!	!LO:TX:t=P:problem:kreska pseudotaktowa	!	!	!	!	!	!	!	!
2D/	.	.	2D/	.	.	.	.	1A	-ja	.	(2f\	-le-	.	1dd	-le-	.
!LO:TX:t=P:problem:kreska pseudotaktowa	!	!	!LO:TX:t=P:problem:kreska pseudotaktowa	!	!	!	!	!	!	!	!LO:TX:t=P:problem:kreska pseudotaktowa	!	!	!	!	!
2Cny/	.	.	2Cny/	.	.	.	.	.	.	.	2e\)	.	.	.	.	.
=115-	=115-	=115-	=115-	=115-	=115-	=115-	=115-	=115-	=115-	=115-	=115-	=115-	=115-	=115-	=115-	=115-
1BB-X	6	.	1BB-X	.	.	1%6r	.	1Gny	Al-	.	(2d\	-lú-	.	(0dd	-lú-	.
.	.	.	.	.	.	.	.	.	.	.	2e\)	.	.	.	.	.
0AA	4#r	.	0AA	.	.	.	.	0A	-le-	.	1f	-ja	.	.	.	.
!	!	!	!	!	!	!	!	!	!	!	!LO:SIC:v:t=custos b	!	!	!	!	!
!	!	!	!	!	!	!	!	!	!	!	!LO:TX:t=P:problem:kreska pseudotaktowa	!	!	!	!	!
.	.	.	.	.	.	.	.	.	.	.	1r	.	.	1cc#X)	.	.
=116-	=116-	=116-	=116-	=116-	=116-	=116-	=116-	=116-	=116-	=116-	=116-	=116-	=116-	=116-	=116-	=116-
!LO:TX:t=P:problem:kreska pseudotaktowa	!	!	!LO:TX:t=P:problem:kreska pseudotaktowa	!	!	!	!	!	!	!	!LO:PB:g=original	!	!	!LO:TX:t=P:problem:kreska pseudotaktowa	!	!
!	!	!	!	!	!	!	!	!	!	!	!LO:SIC:v:s=2B-/	!	!	!	!	!
0.BB-X	.	.	0.BB-X	1%6r	.	.	.	(2D/	-lú-	.	2B/	Al-	.	0.dd	-ja	.
.	.	.	.	.	.	.	.	2C/	.	.	2A/	.	.	.	.	.
!	!	!	!	!	!	!	!	!	!	!	!LO:SIC:v:s=2B-/	!	!	!	!	!
.	.	.	.	.	.	.	.	2D/	.	.	2B/	.	.	.	.	.
.	.	.	.	.	.	.	.	2E/)	.	.	2c/	.	.	.	.	.
!	!	!	!	!	!	!	!	!	!	!	!LO:TX:t=P:problem:kreska pseudotaktowa	!	!	!	!	!
.	.	.	.	.	.	.	.	(2Fny/	-ja	.	1d	.	.	.	.	.
!	!	!	!	!	!	!	!	!LO:TX:t=P:problem:kreska pseudotaktowa	!	!	!	!	!	!	!	!
.	.	.	.	.	.	.	.	2G/)	.	.	.	.	.	.	.	.
=117-	=117-	=117-	=117-	=117-	=117-	=117-	=117-	=117-	=117-	=117-	=117-	=117-	=117-	=117-	=117-	=117-
1C	6	.	1C	.	.	1%6r	.	1A	Al-	.	1e	-le-	.	1ee	Al-	.
1D	.	.	1D	.	.	.	.	1A	-le-	.	(1f	-lú-	.	(2dd\	-le-	.
.	.	.	.	.	.	.	.	.	.	.	.	.	.	2ccny\)	.	.
!LO:TX:t=P:problem:kreska pseudotaktowa	!	!	!LO:TX:t=P:problem:kreska pseudotaktowa	!	!	!	!	!LO:TX:t=P:problem:kreska pseudotaktowa	!	!	!	!	!	!	!	!
1E	#	.	1E	.	.	.	.	1G#X	-lú-	.	1e)	.	.	(2b\	-lú-	.
!	!	!	!	!	!	!	!	!	!	!	!	!	!	!LO:TX:t=P:problem:kreska pseudotaktowa	!	!
.	.	.	.	.	.	.	.	.	.	.	.	.	.	2cc\)	.	.
=118-	=118-	=118-	=118-	=118-	=118-	=118-	=118-	=118-	=118-	=118-	=118-	=118-	=118-	=118-	=118-	=118-
1AA	.	.	1AA	1%6r	.	.	.	1A	-ja	.	1e	-ja	.	1a	-ja	.
1A	.	.	1A	.	.	.	.	1r	.	.	1r	.	.	1cc	Al-	.
!	!	!	!	!	!	!	!	!LO:TX:a:t=Verte	!	!	!	!	!	!	!	!
!LO:TX:t=P:problem:kreska pseudotaktowa	!	!	!LO:TX:t=P:problem:kreska pseudotaktowa	!	!	!	!	!LO:TX:t=P:problem:kreska pseudotaktowa	!	!	!	!	!	!	!	!
1A	.	.	1A	.	.	.	.	1r	.	.	1r	.	.	1cc	-le-	.
=119-	=119-	=119-	=119-	=119-	=119-	=119-	=119-	=119-	=119-	=119-	=119-	=119-	=119-	=119-	=119-	=119-
!	!	!	!	!	!	!	!	!LO:PB:g=original 	!	!	!LO:TX:t=P:problem:kreska pseudotaktowa	!	!	!	!	!
0A	.	.	0A	.	.	1%6r	.	1r	.	.	1%3r	.	.	(0cc	-lú-	.
.	.	.	.	.	.	.	.	1e	Al-	.	.	.	.	.	.	.
!	!	!	!	!	!	!	!	!	!	!	!	!	!	!LO:TX:t=P:problem:kreska pseudotaktowa	!	!
1G#X	6	.	1G#X	.	.	.	.	1e	-le-	.	.	.	.	1b)	.	.
=120-	=120-	=120-	=120-	=120-	=120-	=120-	=120-	=120-	=120-	=120-	=120-	=120-	=120-	=120-	=120-	=120-
0A	.	.	0A	1%6r	.	.	.	0e	-lú-	.	1r	.	.	1cc	-ja	.
.	.	.	.	.	.	.	.	.	.	.	1a	Al-	.	(2ee\	Al-	.
.	.	.	.	.	.	.	.	.	.	.	.	.	.	2dd\)	.	.
!	!	!	!	!	!	!	!	!LO:TX:t=P:problem:kreska pseudotaktowa	!	!	!	!	!	!	!	!
2A\	.	.	2A\	.	.	.	.	1e	-ja	.	1a	-le-	.	(2cc\	-le-	.
!LO:SIC:v:t=custos F	!	!	!LO:SIC:v:t=custos F	!	!	!	!	!	!	!	!	!	!	!LO:TX:t=P:problem:kreska pseudotaktowa	!	!
!LO:TX:t=P:problem:kreska pseudotaktowa	!	!	!LO:TX:t=P:problem:kreska pseudotaktowa	!	!	!	!	!	!	!	!	!	!	!	!	!
2Gny\	.	.	2Gny\	.	.	.	.	.	.	.	.	.	.	2b\)	.	.
=121-	=121-	=121-	=121-	=121-	=121-	=121-	=121-	=121-	=121-	=121-	=121-	=121-	=121-	=121-	=121-	=121-
!LO:LB:g=original	!	!	!LO:LB:g=original	!	!	!LO:TX:t=P:problem:kreska pseudotaktowa	!	!	!	!	!	!	!	!	!	!
1F	6	.	1F	.	.	1%6r	.	1d	Al-	.	(0a	-lú-	.	(2a\	-lú-	.
.	.	.	.	.	.	.	.	.	.	.	.	.	.	2b\)	.	.
0E	4#r	.	0E	.	.	.	.	0d	-le-	.	.	.	.	1cc	-ja	.
!	!	!	!	!	!	!	!	!	!	!	!LO:TX:t=P:problem:kreska pseudotaktowa	!	!	!LO:TX:t=P:problem:kreska pseudotaktowa	!	!
.	.	.	.	.	.	.	.	.	.	.	1g#X)	.	.	1r	.	.
=122-	=122-	=122-	=122-	=122-	=122-	=122-	=122-	=122-	=122-	=122-	=122-	=122-	=122-	=122-	=122-	=122-
!LO:TX:t=P:problem:kreska pseudotaktowa	!	!	!LO:TX:t=P:problem:kreska pseudotaktowa	!	!	!	!	!	!	!	!	!	!	!LO:LB:g=original	!	!
0.F	.	.	0.F	1r	.	.	.	2A/	-lú-	.	0a	-ja	.	(2f/	Al-	.
.	.	.	.	.	.	.	.	2Gny/	.	.	.	.	.	2e/	.	.
.	.	.	.	1r	.	.	.	2A/	.	.	.	.	.	2f/	.	.
.	.	.	.	.	.	.	.	2B\	.	.	.	.	.	2g/)	.	.
!	!	!	!	!	!	!	!	!LO:TX:t=P:problem:kreska pseudotaktowa	!	!	!	!	!	!	!	!
.	.	.	.	2ff\	.	.	.	1A	-ja	.	((2a\	Al-	.	1a	.	.
!	!	!	!	!LO:TX:t=P:problem:kreska pseudotaktowa	!	!	!	!	!	!	!	!	!	!	!	!
.	.	.	.	2ee\	.	.	.	.	.	.	2gny\)	.	.	.	.	.
=123-	=123-	=123-	=123-	=123-	=123-	=123-	=123-	=123-	=123-	=123-	=123-	=123-	=123-	=123-	=123-	=123-
1G	-	.	1G	0dd	.	1r	.	1d	Al-	.	1f)	.	.	1b-X	-le-	.
1A	.	.	1A	.	.	1r	.	1.d	-le-	.	1.e	-le-	.	0a	-lú-	.
1AA	.	.	1AA	1ee	.	1aa	.	.	.	.	.	.	.	.	.	.
.	.	.	.	.	.	.	.	2c#X\	-lú-	.	2d\	-lú-	.	.	.	.
=124-	=124-	=124-	=124-	=124-	=124-	=124-	=124-	=124-	=124-	=124-	=124-	=124-	=124-	=124-	=124-	=124-
0.D	.	.	0.D	0.ff	.	1bb-X	.	0.d	-ja	.	0.d	-ja	.	0.a	-ja	.
.	.	.	.	.	.	0aa	.	.	.	.	.	.	.	.	.	.
=125-	=125-	=125-	=125-	=125-	=125-	=125-	=125-	=125-	=125-	=125-	=125-	=125-	=125-	=125-	=125-	=125-
*M2/1	*	*	*M2/1	*M2/1	*	*M2/1	*	*M2/1	*	*	*M2/1	*	*	*M2/1	*	*
*met(C|)	*	*	*met(C|)	*met(C|)	*	*met(C|)	*	*met(C|)	*	*	*met(C|)	*	*	*met(C|)	*	*
!	!	!	!	!	!	!	!	!	!	!	!LO:LB:g=original	!	!	!	!	!
2D/	.	.	2D/	1dd	.	2aa\	.	2A/	Al-	.	2f#X\	Al-	.	1dd	Al-	.
2BBny/	6	.	2BBny/	.	.	2gg\	.	2G/	-le-	.	1g	.	.	.	.	.
!LO:TX:t=P:problem:kreska pseudotaktowa	!	!	!LO:TX:t=P:problem:kreska pseudotaktowa	!LO:TX:t=P:problem:kreska pseudotaktowa	!	!LO:TX:t=P:problem:kreska pseudotaktowa	!	!	!	!	!	!	!	!	!	!
1C	.	.	1C	1ee	.	1gg	.	2cny\	-lú-	.	.	.	.	(2.cc\	-le-	.
!	!	!	!	!	!	!	!	!LO:SIC:v:t=custos d	!	!	!LO:TX:t=P:problem:kreska pseudotaktowa	!	!	!	!	!
!	!	!	!	!	!	!	!	!LO:TX:t=P:problem:kreska pseudotaktowa	!	!	!	!	!	!	!	!
.	.	.	.	.	.	.	.	2G/	-ja	.	2e\	.	.	.	.	.
.	.	.	.	.	.	.	.	.	.	.	.	.	.	4bny\)	.	.
=126-	=126-	=126-	=126-	=126-	=126-	=126-	=126-	=126-	=126-	=126-	=126-	=126-	=126-	=126-	=126-	=126-
!	!	!	!	!	!	!	!	!LO:LB:g=original	!	!	!	!	!	!	!	!
0D	#:4#r	.	0D	0dd	.	2ff#X\	.	1d	Al-	.	2f#X\	-le-	.	0a	-lú-	.
.	.	.	.	.	.	2gg\	.	.	.	.	(1g	-lú-	.	.	.	.
.	.	.	.	.	.	1aa	.	2d\	-le-	.	.	.	.	.	.	.
.	.	.	.	.	.	.	.	2d\	-lú-	.	2f#X\)	.	.	.	.	.
=127-	=127-	=127-	=127-	=127-	=127-	=127-	=127-	=127-	=127-	=127-	=127-	=127-	=127-	=127-	=127-	=127-
0GG	.	.	0GG	0dd	.	0gg	.	0d	-ja	.	0g	-ja	.	0b	-ja	.
=-	=-	=-	=-	=-	=-	=-	=-	=-	=-	=-	=-	=-	=-	=-	=-	=-
*-	*-	*-	*-	*-	*-	*-	*-	*-	*-	*-	*-	*-	*-	*-	*-	*-
!!!system-decoration: [(s1,s2,s3)][(s4,s5,s6,s7)]
!!!RDF**kern: < = below
!!!RDF**kern: > = above
!!!ENC: Berenika Jozajtis
!!!END: 2022-01-23
!!!ENC: Marta Chmielewska
!!!END: 2022-02-28
!!!YEC: Copyright 2022 Narodowy Instytut Fryderyka Chopina (https://polishscores.org)
!!!YEM: License CC-BY-4.0 (https://creativecommons.org/licenses/by/4.0)
